;Generated with Cura_SteamEngine 15.05
; Default start code
G28 ; Home extruder
G1 Z15 F100
M107 ; Turn off fan
G90 ; Absolute positioning
M82 ; Extruder in absolute mode
M190 S50
; Activate all used extruder
M104 T0 S210
G92 E0 ; Reset extruder position
; Wait for all used extruders to reach temperature
M109 T0 S210
;Layer count: 15
;LAYER:0
M107
G0 F9000 X72.935 Y58.800 Z0.300
;TYPE:SKIRT
G1 F1800 X91.335 Y58.800 E0.91798
G1 X91.335 Y88.800 E2.41469
G1 X108.935 Y88.800 E3.29275
G1 X108.935 Y58.800 E4.78946
G1 X127.335 Y58.800 E5.70744
G1 X127.335 Y88.800 E7.20415
G1 X136.200 Y88.800 E7.64642
G1 X136.200 Y100.200 E8.21517
G1 X63.800 Y100.200 E11.82722
G1 X63.800 Y88.800 E12.39597
G1 X72.935 Y88.800 E12.85172
G1 X72.935 Y58.800 E14.34842
G1 F2400 E10.34842
G0 F9000 X76.735 Y62.600
;TYPE:WALL-INNER
G1 F2400 E14.34842
G1 F1800 X87.535 Y62.600 E14.88724
G1 X87.535 Y92.600 E16.38394
G1 X96.400 Y92.600 E16.82622
G1 X96.400 Y96.400 E17.01580
G1 X67.600 Y96.400 E18.45264
G1 X67.600 Y92.600 E18.64222
G1 X76.735 Y92.600 E19.09797
G1 X76.735 Y62.600 E20.59468
G0 F9000 X80.198 Y65.821
G1 F1800 X79.913 Y66.338 E20.62413
G1 X79.765 Y66.915 E20.65385
G1 X79.774 Y67.533 E20.68468
G1 X79.913 Y68.073 E20.71250
G1 X80.198 Y68.590 E20.74195
G1 X80.601 Y69.020 E20.77136
G1 X81.100 Y69.336 E20.80082
G1 X81.662 Y69.518 E20.83029
G1 X82.249 Y69.556 E20.85964
G1 X82.830 Y69.445 E20.88915
G1 X83.364 Y69.193 E20.91861
G1 X83.819 Y68.817 E20.94806
G1 X84.166 Y68.340 E20.97749
G1 X84.384 Y67.792 E21.00691
G1 X84.458 Y67.201 E21.03663
G1 X84.372 Y66.588 E21.06751
G1 X84.165 Y66.070 E21.09534
G1 X83.819 Y65.593 E21.12474
G1 X83.364 Y65.217 E21.15419
G1 X82.830 Y64.966 E21.18362
G1 X82.250 Y64.855 E21.21308
G1 X81.662 Y64.892 E21.24248
G1 X81.099 Y65.075 E21.27201
G1 X80.601 Y65.391 E21.30144
G1 X80.198 Y65.821 E21.33084
G0 F9000 X79.776 Y67.533
G0 X81.713 Y82.892
G1 F1800 X81.151 Y83.075 E21.36033
G1 X80.654 Y83.391 E21.38971
G1 X80.249 Y83.821 E21.41918
G1 X79.965 Y84.339 E21.44865
G1 X79.817 Y84.915 E21.47832
G1 X79.826 Y85.533 E21.50916
G1 X79.965 Y86.073 E21.53698
G1 X80.249 Y86.590 E21.56641
G1 X80.654 Y87.020 E21.59588
G1 X81.152 Y87.336 E21.62530
G1 X81.713 Y87.518 E21.65473
G1 X82.302 Y87.556 E21.68417
G1 X82.882 Y87.445 E21.71363
G1 X83.416 Y87.193 E21.74309
G1 X83.871 Y86.817 E21.77254
G1 X84.218 Y86.339 E21.80201
G1 X84.435 Y85.791 E21.83141
G1 X84.509 Y85.201 E21.86108
G1 X84.423 Y84.589 E21.89191
G1 X84.218 Y84.071 E21.91971
G1 X83.871 Y83.593 E21.94917
G1 X83.416 Y83.217 E21.97862
G1 X82.882 Y82.966 E22.00806
G1 X82.302 Y82.856 E22.03751
G1 X81.713 Y82.892 E22.06695
G0 F9000 X81.788 Y83.288
;TYPE:WALL-OUTER
G1 F1800 X81.323 Y83.440 E22.09136
G1 X80.911 Y83.702 E22.11572
G1 X80.575 Y84.058 E22.14014
G1 X80.340 Y84.487 E22.16454
G1 X80.218 Y84.962 E22.18901
G1 X80.225 Y85.480 E22.21486
G1 X80.340 Y85.924 E22.23774
G1 X80.575 Y86.353 E22.26214
G1 X80.911 Y86.709 E22.28657
G1 X81.323 Y86.971 E22.31092
G1 X81.788 Y87.122 E22.33532
G1 X82.277 Y87.153 E22.35976
G1 X82.757 Y87.062 E22.38413
G1 X83.200 Y86.853 E22.40857
G1 X83.577 Y86.541 E22.43299
G1 X83.865 Y86.145 E22.45742
G1 X84.044 Y85.691 E22.48176
G1 X84.106 Y85.204 E22.50626
G1 X84.034 Y84.692 E22.53205
G1 X83.865 Y84.265 E22.55496
G1 X83.577 Y83.869 E22.57939
G1 X83.200 Y83.558 E22.60377
G1 X82.757 Y83.349 E22.62821
G1 X82.277 Y83.258 E22.65258
G1 X81.788 Y83.288 E22.67703
G0 F9000 X81.770 Y82.989
G0 X80.655 Y83.392
G0 X79.819 Y84.915
G0 X76.676 Y92.541
G0 X76.335 Y92.500
G0 X76.335 Y92.200
G1 F1800 X76.335 Y62.200 E24.17373
G1 X87.935 Y62.200 E24.75246
G1 X87.935 Y92.200 E26.24916
G1 X96.800 Y92.200 E26.69144
G1 X96.800 Y96.800 E26.92094
G1 X67.200 Y96.800 E28.39769
G1 X67.200 Y92.200 E28.62718
G1 X76.335 Y92.200 E29.08293
G0 F9000 X76.335 Y92.500
G0 X76.676 Y92.541
G0 X81.717 Y69.420
G0 X81.737 Y69.122
G1 F1800 X82.224 Y69.153 E29.10727
G1 X82.705 Y69.062 E29.13170
G1 X83.148 Y68.853 E29.15613
G1 X83.525 Y68.541 E29.18055
G1 X83.813 Y68.145 E29.20498
G1 X83.993 Y67.691 E29.22934
G1 X84.055 Y67.204 E29.25384
G1 X83.983 Y66.691 E29.27968
G1 X83.812 Y66.265 E29.30258
G1 X83.525 Y65.869 E29.32698
G1 X83.148 Y65.558 E29.35136
G1 X82.705 Y65.349 E29.37580
G1 X82.225 Y65.258 E29.40018
G1 X81.737 Y65.288 E29.42457
G1 X81.271 Y65.440 E29.44902
G1 X80.858 Y65.702 E29.47342
G1 X80.524 Y66.058 E29.49778
G1 X80.288 Y66.487 E29.52220
G1 X80.166 Y66.962 E29.54667
G1 X80.173 Y67.480 E29.57252
G1 X80.288 Y67.924 E29.59540
G1 X80.524 Y68.353 E29.61983
G1 X80.858 Y68.709 E29.64418
G1 X81.271 Y68.971 E29.66858
G1 X81.737 Y69.122 E29.69302
G0 F9000 X81.831 Y69.669
;TYPE:SKIN
G1 F1800 X87.394 Y75.232 E30.08552
G0 F9000 X87.394 Y75.798
G1 F1800 X81.069 Y69.472 E30.53182
G0 F9000 X82.398 Y69.670
G1 F1800 X87.394 Y74.666 E30.88431
G0 F9000 X87.394 Y74.101
G1 F1800 X82.872 Y69.579 E31.20337
G0 F9000 X83.257 Y69.398
G1 F1800 X87.394 Y73.535 E31.49525
G0 F9000 X87.394 Y72.969
G1 F1800 X83.602 Y69.177 E31.76280
G0 F9000 X83.912 Y68.921
G1 F1800 X87.394 Y72.404 E32.00851
G0 F9000 X87.394 Y71.838
G1 F1800 X84.151 Y68.595 E32.23732
G0 F9000 X84.357 Y68.235
G1 F1800 X87.394 Y71.272 E32.45160
G0 F9000 X87.394 Y70.707
G1 F1800 X84.518 Y67.830 E32.65455
G0 F9000 X84.581 Y67.327
G1 F1800 X87.394 Y70.141 E32.85306
G0 F9000 X87.394 Y69.575
G1 F1800 X84.530 Y66.711 E33.05513
G0 F9000 X84.024 Y65.639
G1 F1800 X87.394 Y69.010 E33.29293
G0 F9000 X87.394 Y68.444
G1 F1800 X81.690 Y62.740 E33.69538
G0 F9000 X81.124 Y62.740
G1 F1800 X83.687 Y65.302 E33.87618
G0 F9000 X82.597 Y64.778
G1 F1800 X80.559 Y62.740 E34.01997
G0 F9000 X79.993 Y62.740
G1 F1800 X81.984 Y64.731 E34.16045
G0 F9000 X81.488 Y64.800
G1 F1800 X79.427 Y62.740 E34.30583
G0 F9000 X78.862 Y62.740
G1 F1800 X81.062 Y64.939 E34.46101
G0 F9000 X80.711 Y65.154
G1 F1800 X78.296 Y62.740 E34.63137
G0 F9000 X77.730 Y62.740
G1 F1800 X80.395 Y65.405 E34.81940
G0 F9000 X80.122 Y65.697
G1 F1800 X77.165 Y62.740 E35.02803
G0 F9000 X76.873 Y63.014
G1 F1800 X79.911 Y66.052 E35.24238
G0 F9000 X79.741 Y66.447
G1 F1800 X76.873 Y63.580 E35.44470
G0 F9000 X76.873 Y64.145
G1 F1800 X79.625 Y66.897 E35.63887
G0 F9000 X79.632 Y67.470
G1 F1800 X76.873 Y64.711 E35.83353
G0 F9000 X76.873 Y65.277
G1 F1800 X79.857 Y68.261 E36.04407
G0 F9000 X76.873 Y68.105
G1 F1800 X87.394 Y78.626 E36.78638
G0 F9000 X87.394 Y78.061
G1 F1800 X76.873 Y67.540 E37.52869
G0 F9000 X76.873 Y66.974
G1 F1800 X87.394 Y77.495 E38.27101
G0 F9000 X87.394 Y76.929
G1 F1800 X76.873 Y66.408 E39.01332
G0 F9000 X76.873 Y65.842
G1 F1800 X87.394 Y76.363 E39.75563
G0 F9000 X87.394 Y79.192
G1 F1800 X76.873 Y68.671 E40.49795
G0 F9000 X76.873 Y69.237
G1 F1800 X87.394 Y79.758 E41.24026
G0 F9000 X87.394 Y67.878
G1 F1800 X82.256 Y62.740 E41.60277
G0 F9000 X82.822 Y62.740
G1 F1800 X87.394 Y67.313 E41.92539
G0 F9000 X87.394 Y66.747
G1 F1800 X83.387 Y62.740 E42.20810
G0 F9000 X83.953 Y62.740
G1 F1800 X87.394 Y66.181 E42.45088
G0 F9000 X87.394 Y65.615
G1 F1800 X84.519 Y62.740 E42.65373
G0 F9000 X85.084 Y62.740
G1 F1800 X87.394 Y65.050 E42.81671
G0 F9000 X87.394 Y64.484
G1 F1800 X85.650 Y62.740 E42.93976
G0 F9000 X86.216 Y62.740
G1 F1800 X87.394 Y63.918 E43.02288
G0 F9000 X87.394 Y63.353
G1 F1800 X86.781 Y62.740 E43.06613
G0 F9000 X80.603 Y65.392
G0 X79.767 Y66.915
G0 X76.873 Y69.802
G1 F1800 X87.394 Y80.323 E43.80844
G0 F9000 X87.394 Y80.889
G1 F1800 X76.873 Y70.368 E44.55075
G0 F9000 X76.873 Y70.934
G1 F1800 X87.394 Y81.455 E45.29307
G0 F9000 X87.394 Y82.020
G1 F1800 X76.873 Y71.499 E46.03538
G0 F9000 X76.873 Y72.065
G1 F1800 X87.394 Y82.586 E46.77769
G0 F9000 X87.394 Y83.152
G1 F1800 X76.873 Y72.631 E47.52001
G0 F9000 X76.873 Y73.196
G1 F1800 X87.394 Y83.717 E48.26232
G0 F9000 X87.394 Y84.283
G1 F1800 X76.873 Y73.762 E49.00463
G0 F9000 X76.873 Y74.328
G1 F1800 X87.394 Y84.849 E49.74695
G0 F9000 X87.394 Y85.414
G1 F1800 X76.873 Y74.893 E50.48926
G0 F9000 X76.873 Y75.459
G1 F1800 X87.394 Y85.980 E51.23157
G0 F9000 X87.394 Y86.546
G1 F1800 X76.873 Y76.025 E51.97389
G0 F9000 X76.873 Y76.590
G1 F1800 X83.281 Y82.998 E52.42601
G0 F9000 X82.459 Y82.742
G1 F1800 X76.873 Y77.156 E52.82013
G0 F9000 X76.873 Y77.722
G1 F1800 X81.891 Y82.739 E53.17414
G0 F9000 X81.424 Y82.838
G1 F1800 X76.873 Y78.288 E53.49520
G0 F9000 X76.873 Y78.853
G1 F1800 X81.015 Y82.995 E53.78744
G0 F9000 X80.669 Y83.215
G1 F1800 X76.873 Y79.419 E54.05527
G0 F9000 X76.873 Y79.985
G1 F1800 X80.373 Y83.485 E54.30222
G0 F9000 X80.108 Y83.785
G1 F1800 X76.873 Y80.550 E54.53046
G0 F9000 X76.873 Y81.116
G1 F1800 X79.909 Y84.152 E54.74467
G0 F9000 X79.761 Y84.569
G1 F1800 X76.873 Y81.682 E54.94840
G0 F9000 X76.873 Y82.247
G1 F1800 X79.679 Y85.053 E55.14638
G0 F9000 X79.712 Y85.652
G1 F1800 X76.873 Y82.813 E55.34668
G0 F9000 X76.873 Y83.379
G1 F1800 X80.096 Y86.602 E55.57408
G0 F9000 X80.722 Y87.227
G1 F1800 X89.753 Y96.259 E56.21130
G0 F9000 X89.188 Y96.259
G1 F1800 X76.873 Y83.944 E57.08019
G0 F9000 X76.873 Y84.510
G1 F1800 X88.622 Y96.259 E57.90915
G0 F9000 X88.056 Y96.259
G1 F1800 X76.873 Y85.076 E58.69817
G0 F9000 X76.873 Y85.641
G1 F1800 X87.491 Y96.259 E59.44733
G0 F9000 X86.925 Y96.259
G1 F1800 X76.873 Y86.207 E60.15655
G0 F9000 X76.873 Y86.773
G1 F1800 X86.359 Y96.259 E60.82584
G0 F9000 X85.793 Y96.259
G1 F1800 X76.873 Y87.339 E61.45519
G0 F9000 X76.873 Y87.904
G1 F1800 X85.228 Y96.259 E62.04468
G0 F9000 X84.662 Y96.259
G1 F1800 X76.873 Y88.470 E62.59424
G0 F9000 X76.873 Y89.036
G1 F1800 X84.096 Y96.259 E63.10386
G0 F9000 X83.531 Y96.259
G1 F1800 X76.873 Y89.601 E63.57362
G0 F9000 X76.873 Y90.167
G1 F1800 X82.965 Y96.259 E64.00344
G0 F9000 X82.399 Y96.259
G1 F1800 X76.873 Y90.733 E64.39333
G0 F9000 X76.873 Y91.298
G1 F1800 X81.834 Y96.259 E64.74336
G0 F9000 X81.268 Y96.259
G1 F1800 X76.873 Y91.864 E65.05345
G0 F9000 X76.873 Y92.430
G1 F1800 X80.702 Y96.259 E65.32360
G0 F9000 X80.137 Y96.259
G1 F1800 X76.617 Y92.739 E65.57196
G0 F9000 X76.051 Y92.739
G1 F1800 X79.571 Y96.259 E65.82031
G0 F9000 X79.005 Y96.259
G1 F1800 X75.485 Y92.739 E66.06867
G0 F9000 X74.920 Y92.739
G1 F1800 X78.440 Y96.259 E66.31702
G0 F9000 X77.874 Y96.259
G1 F1800 X74.354 Y92.739 E66.56538
G0 F9000 X73.788 Y92.739
G1 F1800 X77.308 Y96.259 E66.81373
G0 F9000 X76.743 Y96.259
G1 F1800 X73.223 Y92.739 E67.06209
G0 F9000 X72.657 Y92.739
G1 F1800 X76.177 Y96.259 E67.31044
G0 F9000 X75.611 Y96.259
G1 F1800 X72.091 Y92.739 E67.55880
G0 F9000 X71.525 Y92.739
G1 F1800 X75.045 Y96.259 E67.80715
G0 F9000 X74.480 Y96.259
G1 F1800 X70.960 Y92.739 E68.05551
G0 F9000 X70.394 Y92.739
G1 F1800 X73.914 Y96.259 E68.30386
G0 F9000 X73.348 Y96.259
G1 F1800 X69.828 Y92.739 E68.55222
G0 F9000 X69.263 Y92.739
G1 F1800 X72.783 Y96.259 E68.80057
G0 F9000 X72.217 Y96.259
G1 F1800 X68.697 Y92.739 E69.04893
G0 F9000 X68.131 Y92.739
G1 F1800 X71.651 Y96.259 E69.29728
G0 F9000 X71.086 Y96.259
G1 F1800 X67.740 Y92.913 E69.53336
G0 F9000 X67.740 Y93.478
G1 F1800 X70.520 Y96.259 E69.72954
G0 F9000 X69.954 Y96.259
G1 F1800 X67.740 Y94.044 E69.88579
G0 F9000 X67.740 Y94.610
G1 F1800 X69.389 Y96.259 E70.00213
G0 F9000 X68.823 Y96.259
G1 F1800 X67.740 Y95.175 E70.07858
G0 F9000 X67.740 Y95.741
G1 F1800 X68.257 Y96.259 E70.11509
G0 F9000 X76.676 Y92.541
G0 X81.717 Y87.657
G1 F1800 X90.319 Y96.259 E70.72201
G0 F9000 X90.885 Y96.259
G1 F1800 X82.320 Y87.694 E71.32632
G0 F9000 X82.795 Y87.604
G1 F1800 X87.394 Y92.203 E71.65080
G0 F9000 X87.394 Y91.637
G1 F1800 X83.205 Y87.447 E71.94639
G0 F9000 X83.570 Y87.247
G1 F1800 X87.394 Y91.071 E72.21620
G0 F9000 X87.394 Y90.506
G1 F1800 X83.879 Y86.991 E72.46420
G0 F9000 X84.138 Y86.684
G1 F1800 X87.394 Y89.940 E72.69393
G0 F9000 X87.394 Y89.374
G1 F1800 X84.364 Y86.344 E72.90771
G0 F9000 X84.525 Y85.939
G1 F1800 X87.394 Y88.809 E73.11017
G0 F9000 X87.394 Y88.243
G1 F1800 X84.615 Y85.464 E73.30624
G0 F9000 X84.606 Y84.888
G1 F1800 X87.394 Y87.677 E73.50299
G0 F9000 X87.394 Y87.112
G1 F1800 X84.376 Y84.093 E73.71596
G0 F9000 X87.594 Y92.541
G0 X87.931 Y92.739
G1 F1800 X91.450 Y96.259 E73.96428
G0 F9000 X92.016 Y96.259
G1 F1800 X88.497 Y92.739 E74.21260
G0 F9000 X89.062 Y92.739
G1 F1800 X92.582 Y96.259 E74.46095
G0 F9000 X93.147 Y96.259
G1 F1800 X89.628 Y92.739 E74.70927
G0 F9000 X90.194 Y92.739
G1 F1800 X93.713 Y96.259 E74.95759
G0 F9000 X94.279 Y96.259
G1 F1800 X90.759 Y92.739 E75.20595
G0 F9000 X91.325 Y92.739
G1 F1800 X94.844 Y96.259 E75.45427
G0 F9000 X95.410 Y96.259
G1 F1800 X91.891 Y92.739 E75.70259
G0 F9000 X92.457 Y92.739
G1 F1800 X95.976 Y96.259 E75.95091
G0 F9000 X96.259 Y95.977
G1 F1800 X93.022 Y92.739 E76.17933
G0 F9000 X93.588 Y92.739
G1 F1800 X96.259 Y95.411 E76.36782
G0 F9000 X96.259 Y94.845
G1 F1800 X94.154 Y92.739 E76.51637
G0 F9000 X94.719 Y92.739
G1 F1800 X96.259 Y94.279 E76.62503
G0 F9000 X96.259 Y93.714
G1 F1800 X95.285 Y92.739 E76.69378
G0 F9000 X95.851 Y92.739
G1 F1800 X96.259 Y93.148 E76.72261
G1 F2400 E72.72261
G0 F9000 X103.600 Y92.600
;TYPE:WALL-INNER
G1 F2400 E76.72261
G1 F1800 X112.735 Y92.600 E77.17835
G1 X112.735 Y62.600 E78.67506
G1 X123.535 Y62.600 E79.21387
G1 X123.535 Y92.600 E80.71058
G1 X132.400 Y92.600 E81.15286
G1 X132.400 Y96.400 E81.34244
G1 X103.600 Y96.400 E82.77928
G1 X103.600 Y92.600 E82.96886
G0 F9000 X112.676 Y92.541
G0 X115.965 Y86.073
G1 F1800 X116.249 Y86.590 E82.99829
G1 X116.654 Y87.020 E83.02776
G1 X117.152 Y87.336 E83.05718
G1 X117.713 Y87.518 E83.08661
G1 X118.302 Y87.556 E83.11605
G1 X118.882 Y87.445 E83.14552
G1 X119.416 Y87.193 E83.17497
G1 X119.871 Y86.817 E83.20442
G1 X120.218 Y86.339 E83.23389
G1 X120.435 Y85.791 E83.26330
G1 X120.509 Y85.201 E83.29296
G1 X120.423 Y84.589 E83.32379
G1 X120.218 Y84.071 E83.35159
G1 X119.871 Y83.593 E83.38106
G1 X119.416 Y83.217 E83.41050
G1 X118.882 Y82.966 E83.43994
G1 X118.302 Y82.856 E83.46939
G1 X117.713 Y82.892 E83.49883
G1 X117.151 Y83.075 E83.52832
G1 X116.654 Y83.391 E83.55770
G1 X116.249 Y83.821 E83.58717
G1 X115.965 Y84.339 E83.61665
G1 X115.817 Y84.915 E83.64632
G1 X115.826 Y85.533 E83.67715
G1 X115.965 Y86.073 E83.70497
G0 F9000 X115.819 Y84.915
G0 X117.662 Y69.518
G1 F1800 X118.249 Y69.556 E83.73432
G1 X118.830 Y69.445 E83.76383
G1 X119.364 Y69.193 E83.79329
G1 X119.819 Y68.817 E83.82274
G1 X120.166 Y68.340 E83.85216
G1 X120.384 Y67.792 E83.88159
G1 X120.458 Y67.201 E83.91130
G1 X120.372 Y66.588 E83.94219
G1 X120.165 Y66.070 E83.97002
G1 X119.819 Y65.593 E83.99941
G1 X119.364 Y65.217 E84.02886
G1 X118.830 Y64.966 E84.05830
G1 X118.250 Y64.855 E84.08776
G1 X117.662 Y64.892 E84.11716
G1 X117.099 Y65.075 E84.14669
G1 X116.601 Y65.391 E84.17612
G1 X116.198 Y65.821 E84.20552
G1 X115.913 Y66.338 E84.23497
G1 X115.765 Y66.915 E84.26469
G1 X115.774 Y67.533 E84.29552
G1 X115.913 Y68.073 E84.32334
G1 X116.198 Y68.590 E84.35280
G1 X116.601 Y69.020 E84.38220
G1 X117.100 Y69.336 E84.41166
G1 X117.662 Y69.518 E84.44114
G0 F9000 X117.737 Y69.122
;TYPE:WALL-OUTER
G1 F1800 X118.224 Y69.153 E84.46548
G1 X118.705 Y69.062 E84.48990
G1 X119.148 Y68.853 E84.51434
G1 X119.525 Y68.541 E84.53876
G1 X119.813 Y68.145 E84.56319
G1 X119.993 Y67.691 E84.58755
G1 X120.055 Y67.204 E84.61204
G1 X119.983 Y66.691 E84.63789
G1 X119.812 Y66.265 E84.66079
G1 X119.525 Y65.869 E84.68519
G1 X119.148 Y65.558 E84.70957
G1 X118.705 Y65.349 E84.73401
G1 X118.225 Y65.258 E84.75838
G1 X117.737 Y65.288 E84.78278
G1 X117.271 Y65.440 E84.80723
G1 X116.858 Y65.702 E84.83163
G1 X116.524 Y66.058 E84.85598
G1 X116.288 Y66.487 E84.88041
G1 X116.166 Y66.962 E84.90488
G1 X116.173 Y67.480 E84.93072
G1 X116.288 Y67.924 E84.95361
G1 X116.524 Y68.353 E84.97803
G1 X116.858 Y68.709 E85.00239
G1 X117.271 Y68.971 E85.02679
G1 X117.737 Y69.122 E85.05123
G0 F9000 X117.717 Y69.420
G0 X116.603 Y69.019
G0 X115.776 Y67.533
G0 X112.635 Y62.410
G0 X112.335 Y62.200
G1 F1800 X123.935 Y62.200 E85.62995
G1 X123.935 Y92.200 E87.12666
G1 X132.800 Y92.200 E87.56894
G1 X132.800 Y96.800 E87.79843
G1 X103.200 Y96.800 E89.27518
G1 X103.200 Y92.200 E89.50468
G1 X112.335 Y92.200 E89.96042
G1 X112.335 Y62.200 E91.45713
G0 F9000 X112.635 Y62.410
G0 X117.770 Y82.989
G0 X117.788 Y83.288
G1 F1800 X117.323 Y83.440 E91.48154
G1 X116.911 Y83.702 E91.50590
G1 X116.575 Y84.058 E91.53032
G1 X116.340 Y84.487 E91.55472
G1 X116.218 Y84.962 E91.57919
