;Generated with Cura_SteamEngine 15.05
; Default start code
G28 ; Home extruder
G1 Z15 F100
M107 ; Turn off fan
G90 ; Absolute positioning
M82 ; Extruder in absolute mode
M190 S50
; Activate all used extruder
M104 T0 S210
G92 E0 ; Reset extruder position
; Wait for all used extruders to reach temperature
M109 T0 S210
;Layer count: 95
;LAYER:0
M107
G0 F9000 X75.348 Y86.189 Z0.300
;TYPE:SKIRT
G1 F1800 X76.952 Y85.373 E0.08978
G1 X77.410 Y85.131 E0.11563
G1 X79.460 Y84.806 E0.21918
G1 X120.502 Y84.800 E2.26677
G1 X122.026 Y85.041 E2.34375
G1 X122.562 Y85.126 E2.37083
G1 X124.188 Y85.952 E2.46181
G1 X124.670 Y86.208 E2.48904
G1 X126.310 Y87.848 E2.60475
G1 X127.126 Y89.452 E2.69454
G1 X127.368 Y89.908 E2.72029
G1 X127.691 Y91.941 E2.82299
G1 X127.700 Y92.728 E2.86226
G1 X127.700 Y115.200 E3.98339
G1 X72.300 Y115.200 E6.74731
G1 X72.300 Y91.998 E7.90486
G1 X72.541 Y90.474 E7.98184
G1 X72.626 Y89.937 E8.00896
G1 X73.452 Y88.311 E8.09995
G1 X73.708 Y87.829 E8.12718
G1 X75.348 Y86.189 E8.24289
G1 F2400 E4.24289
G0 F9000 X77.606 Y89.304
;TYPE:WALL-INNER
G1 F2400 E8.24289
G1 F1800 X78.625 Y88.786 E8.29992
G1 X79.762 Y88.606 E8.35735
G1 X94.400 Y88.604 E9.08764
G1 X94.400 Y91.949 E9.25453
G1 X105.600 Y91.949 E9.81330
G1 X105.600 Y88.602 E9.98028
G1 X120.200 Y88.600 E10.70868
G1 X121.376 Y88.786 E10.76808
G1 X122.391 Y89.302 E10.82488
G1 X123.195 Y90.106 E10.88161
G1 X123.713 Y91.125 E10.93864
G1 X123.895 Y92.265 E10.99623
G1 X123.900 Y111.400 E11.95088
G1 X76.100 Y111.400 E14.33564
G1 X76.100 Y92.300 E15.28854
G1 X76.286 Y91.123 E15.34799
G1 X76.802 Y90.108 E15.40479
G1 X77.606 Y89.304 E15.46152
G0 F9000 X80.147 Y92.525
G1 F1800 X80.021 Y92.638 E15.46996
G1 X78.485 Y95.288 E15.62278
G1 X78.423 Y95.445 E15.63120
G1 X77.915 Y98.336 E15.77764
G1 X77.893 Y98.503 E15.78604
G1 X78.422 Y101.532 E15.93945
G1 X78.484 Y101.689 E15.94787
G1 X79.949 Y104.227 E16.09407
G1 X80.045 Y104.366 E16.10250
G1 X82.394 Y106.339 E16.25555
G1 X82.543 Y106.418 E16.26396
G1 X85.296 Y107.419 E16.41011
G1 X85.459 Y107.462 E16.41852
G1 X88.404 Y107.463 E16.56544
G1 X88.573 Y107.460 E16.57387
G1 X91.456 Y106.420 E16.72678
G1 X91.605 Y106.340 E16.73522
G1 X93.852 Y104.454 E16.88158
G1 X93.978 Y104.341 E16.89002
G1 X95.514 Y101.691 E17.04283
G1 X95.576 Y101.534 E17.05125
G1 X96.085 Y98.642 E17.19775
G1 X96.107 Y98.475 E17.20616
G1 X95.577 Y95.447 E17.35952
G1 X95.515 Y95.290 E17.36794
G1 X94.050 Y92.752 E17.51414
G1 X93.955 Y92.613 E17.52254
G1 X91.606 Y90.641 E17.67556
G1 X91.457 Y90.561 E17.68400
G1 X88.703 Y89.560 E17.83019
G1 X88.540 Y89.517 E17.83860
G1 X85.595 Y89.516 E17.98552
G1 X85.426 Y89.519 E17.99396
G1 X82.541 Y90.560 E18.14697
G1 X82.393 Y90.641 E18.15539
G1 X80.147 Y92.525 E18.30165
G0 F9000 X82.541 Y90.561
G0 X85.596 Y89.516
G0 X88.702 Y89.561
G0 X91.605 Y90.642
G0 X94.050 Y92.753
G0 X95.575 Y95.448
G0 X96.085 Y98.641
G0 X95.514 Y101.690
G0 X94.388 Y103.874
G1 F1800 X94.388 Y109.274 E18.57105
G1 X105.588 Y109.274 E19.12982
G1 X105.588 Y103.874 E19.39923
G1 X94.388 Y103.874 E19.95800
G0 F9000 X104.422 Y101.532
G1 F1800 X104.484 Y101.689 E19.96642
G1 X105.949 Y104.227 E20.11262
G1 X106.045 Y104.366 E20.12105
G1 X108.394 Y106.339 E20.27410
G1 X108.543 Y106.418 E20.28251
G1 X111.296 Y107.419 E20.42866
G1 X111.459 Y107.462 E20.43707
G1 X114.404 Y107.463 E20.58399
G1 X114.573 Y107.460 E20.59243
G1 X117.456 Y106.420 E20.74533
G1 X117.605 Y106.340 E20.75377
G1 X119.852 Y104.454 E20.90013
G1 X119.978 Y104.341 E20.90857
G1 X121.514 Y101.691 E21.06138
G1 X121.576 Y101.534 E21.06981
G1 X122.085 Y98.642 E21.21631
G1 X122.107 Y98.475 E21.22471
G1 X121.577 Y95.447 E21.37807
G1 X121.515 Y95.290 E21.38650
G1 X120.050 Y92.752 E21.53270
G1 X119.955 Y92.613 E21.54110
G1 X117.606 Y90.641 E21.69411
G1 X117.457 Y90.561 E21.70255
G1 X114.703 Y89.560 E21.84874
G1 X114.540 Y89.517 E21.85715
G1 X111.595 Y89.516 E22.00408
G1 X111.426 Y89.519 E22.01251
G1 X108.541 Y90.560 E22.16553
G1 X108.393 Y90.641 E22.17394
G1 X106.147 Y92.525 E22.32020
G1 X106.021 Y92.638 E22.32864
G1 X104.485 Y95.288 E22.48146
G1 X104.423 Y95.445 E22.48988
G1 X103.915 Y98.336 E22.63632
G1 X103.893 Y98.503 E22.64472
G1 X104.422 Y101.532 E22.79813
G0 F9000 X104.845 Y101.516
;TYPE:WALL-OUTER
G1 F1800 X106.287 Y104.013 E22.94198
G1 X106.343 Y104.094 E22.94690
G1 X108.619 Y106.006 E23.09520
G1 X108.706 Y106.052 E23.10011
G1 X111.415 Y107.037 E23.24392
G1 X111.510 Y107.062 E23.24882
G1 X114.401 Y107.063 E23.39305
G1 X114.500 Y107.061 E23.39799
G1 X117.293 Y106.053 E23.54613
G1 X117.380 Y106.007 E23.55104
G1 X119.590 Y104.152 E23.69499
G1 X119.664 Y104.086 E23.69994
G1 X121.153 Y101.517 E23.84808
G1 X121.189 Y101.425 E23.85301
G1 X121.690 Y98.582 E23.99703
G1 X121.702 Y98.484 E24.00196
G1 X121.190 Y95.555 E24.15030
G1 X121.154 Y95.463 E24.15523
G1 X119.712 Y92.966 E24.29908
G1 X119.656 Y92.885 E24.30400
G1 X117.381 Y90.974 E24.45223
G1 X117.294 Y90.927 E24.45716
G1 X114.584 Y89.942 E24.60102
G1 X114.489 Y89.917 E24.60592
G1 X111.598 Y89.916 E24.75015
G1 X111.499 Y89.918 E24.75509
G1 X108.706 Y90.926 E24.90323
G1 X108.620 Y90.973 E24.90812
G1 X106.409 Y92.827 E25.05208
G1 X106.335 Y92.893 E25.05702
G1 X104.846 Y95.462 E25.20516
G1 X104.810 Y95.554 E25.21009
G1 X104.310 Y98.396 E25.35406
G1 X104.298 Y98.494 E25.35898
G1 X104.809 Y101.424 E25.50737
G1 X104.845 Y101.516 E25.51230
G0 F9000 X104.585 Y101.665
G0 X105.188 Y103.974
G0 X105.188 Y104.274
G1 F1800 X94.788 Y104.274 E26.03116
G1 X94.788 Y108.874 E26.26065
G1 X105.188 Y108.874 E26.77951
G1 X105.188 Y104.274 E27.00900
G0 F9000 X105.188 Y103.974
G0 X95.468 Y101.532
G0 X95.189 Y101.425
G1 F1800 X95.690 Y98.582 E27.15303
G1 X95.702 Y98.484 E27.15795
G1 X95.190 Y95.555 E27.30630
G1 X95.154 Y95.463 E27.31123
G1 X93.712 Y92.966 E27.45508
G1 X93.656 Y92.885 E27.45999
G1 X91.381 Y90.974 E27.60822
G1 X91.294 Y90.927 E27.61316
G1 X88.584 Y89.942 E27.75701
G1 X88.489 Y89.917 E27.76192
G1 X85.598 Y89.916 E27.90615
G1 X85.499 Y89.918 E27.91109
G1 X82.706 Y90.926 E28.05923
G1 X82.620 Y90.973 E28.06412
G1 X80.409 Y92.827 E28.20807
G1 X80.335 Y92.893 E28.21302
G1 X78.846 Y95.462 E28.36116
G1 X78.810 Y95.554 E28.36609
G1 X78.310 Y98.396 E28.51005
G1 X78.298 Y98.494 E28.51498
G1 X78.809 Y101.424 E28.66337
G1 X78.845 Y101.516 E28.66829
G1 X80.287 Y104.013 E28.81215
G1 X80.343 Y104.094 E28.81706
G1 X82.619 Y106.006 E28.96536
G1 X82.706 Y106.052 E28.97027
G1 X85.415 Y107.037 E29.11408
G1 X85.510 Y107.062 E29.11898
G1 X88.401 Y107.063 E29.26322
G1 X88.500 Y107.061 E29.26816
G1 X91.293 Y106.053 E29.41630
G1 X91.380 Y106.007 E29.42121
G1 X93.590 Y104.152 E29.56516
G1 X93.664 Y104.086 E29.57010
G1 X95.153 Y101.517 E29.71824
G1 X95.189 Y101.425 E29.72317
G0 F9000 X95.468 Y101.532
G0 X96.104 Y98.475
G0 X95.515 Y95.290
G0 X94.500 Y91.549
G0 X94.800 Y91.549
G1 F1800 X105.200 Y91.549 E30.24203
G1 X105.200 Y88.800 E30.37918
G1 X94.800 Y88.800 E30.89804
G1 X94.800 Y91.549 E31.03518
G0 F9000 X94.500 Y91.549
G0 X88.540 Y89.519
G0 X79.753 Y88.506
G0 X79.730 Y88.206
G1 F1800 X120.232 Y88.200 E33.05584
G1 X121.502 Y88.401 E33.11999
G1 X122.620 Y88.970 E33.18257
G1 X123.523 Y89.868 E33.24611
G1 X124.095 Y90.994 E33.30912
G1 X124.294 Y92.232 E33.37167
G1 X124.300 Y92.746 E33.39732
G1 X124.300 Y111.800 E34.34793
G1 X75.700 Y111.800 E36.77259
G1 X75.700 Y92.268 E37.74705
G1 X75.901 Y90.997 E37.81125
G1 X76.470 Y89.879 E37.87383
G1 X77.368 Y88.976 E37.93737
G1 X78.494 Y88.404 E38.00038
G1 X79.730 Y88.206 E38.06283
G0 F9000 X79.977 Y88.745
;TYPE:SKIN
G1 F1800 X82.010 Y90.778 E38.20626
G0 F9000 X81.702 Y91.036
G1 F1800 X79.461 Y88.794 E38.36441
G0 F9000 X78.972 Y88.872
G1 F1800 X81.395 Y91.294 E38.53534
G0 F9000 X81.087 Y91.552
G1 F1800 X78.527 Y88.992 E38.71596
G0 F9000 X78.152 Y89.183
G1 F1800 X80.779 Y91.810 E38.90131
G0 F9000 X80.472 Y92.068
G1 F1800 X77.777 Y89.374 E39.09142
G0 F9000 X77.472 Y89.634
G1 F1800 X80.164 Y92.326 E39.28135
G0 F9000 X82.318 Y90.520
G1 F1800 X80.542 Y88.745 E39.40662
G0 F9000 X81.108 Y88.745
G1 F1800 X82.710 Y90.347 E39.51965
G0 F9000 X83.126 Y90.197
G1 F1800 X81.674 Y88.745 E39.62210
G0 F9000 X82.240 Y88.745
G1 F1800 X83.542 Y90.047 E39.71396
G0 F9000 X83.958 Y89.898
G1 F1800 X82.805 Y88.745 E39.79531
G0 F9000 X83.371 Y88.745
G1 F1800 X84.374 Y89.748 E39.86608
G0 F9000 X84.789 Y89.598
G1 F1800 X83.937 Y88.745 E39.92623
G0 F9000 X84.502 Y88.745
G1 F1800 X85.205 Y89.448 E39.97583
G0 F9000 X85.698 Y89.375
G1 F1800 X85.068 Y88.745 E40.02028
G0 F9000 X85.634 Y88.745
G1 F1800 X86.264 Y89.375 E40.06473
G0 F9000 X86.829 Y89.375
G1 F1800 X86.199 Y88.745 E40.10918
G0 F9000 X86.765 Y88.745
G1 F1800 X87.395 Y89.375 E40.15363
G0 F9000 X87.961 Y89.375
G1 F1800 X87.330 Y88.744 E40.19815
G0 F9000 X87.896 Y88.744
G1 F1800 X88.526 Y89.375 E40.24263
G0 F9000 X88.461 Y88.744
G1 F1800 X89.369 Y89.652 E40.30670
G0 F9000 X89.593 Y88.744
G1 F1800 X91.147 Y90.298 E40.41634
G0 F9000 X90.258 Y89.975
G1 F1800 X89.027 Y88.744 E40.50320
G0 F9000 X90.158 Y88.744
G1 F1800 X93.266 Y91.852 E40.72248
G0 F9000 X94.259 Y91.713
G1 F1800 X91.290 Y88.744 E40.93196
G0 F9000 X91.855 Y88.744
G1 F1800 X94.259 Y91.148 E41.10158
G0 F9000 X94.259 Y90.582
G1 F1800 X92.421 Y88.744 E41.23126
G0 F9000 X92.987 Y88.744
G1 F1800 X94.259 Y90.016 E41.32100
G0 F9000 X94.259 Y89.451
G1 F1800 X93.553 Y88.744 E41.37085
G0 F9000 X94.118 Y88.744
G1 F1800 X94.259 Y88.885 E41.38080
G0 F9000 X94.909 Y88.403
G1 F1800 X95.289 Y88.501 E41.39460
G1 X95.855 Y88.501 E41.40837
G1 X96.421 Y88.501 E41.42213
G1 X96.987 Y88.501 E41.43590
G1 X97.552 Y88.501 E41.44964
G1 X98.117 Y88.501 E41.46345
G1 X98.683 Y88.501 E41.47722
G1 X99.249 Y88.501 E41.49099
G1 X99.814 Y88.501 E41.50480
G1 X100.380 Y88.501 E41.51856
G1 X100.946 Y88.501 E41.53233
G1 X101.511 Y88.501 E41.54614
G1 X102.077 Y88.500 E41.55991
G1 X102.643 Y88.500 E41.57382
G1 X103.208 Y88.500 E41.58763
G1 X103.774 Y88.500 E41.60146
G1 X104.340 Y88.500 E41.61537
G1 X104.905 Y88.500 E41.62918
G1 X105.287 Y88.599 E41.64887
G0 F9000 X105.739 Y89.051
G1 F1800 X107.714 Y91.026 E41.78822
G0 F9000 X108.021 Y90.768
G1 F1800 X105.995 Y88.741 E41.93120
G0 F9000 X106.560 Y88.741
G1 F1800 X108.333 Y90.513 E42.05626
G0 F9000 X108.727 Y90.342
G1 F1800 X107.126 Y88.741 E42.16922
G0 F9000 X107.692 Y88.741
G1 F1800 X109.143 Y90.192 E42.27159
G0 F9000 X109.559 Y90.042
G1 F1800 X108.258 Y88.741 E42.36339
G0 F9000 X108.823 Y88.741
G1 F1800 X109.974 Y89.893 E42.44463
G0 F9000 X110.390 Y89.743
G1 F1800 X109.389 Y88.741 E42.51529
G0 F9000 X109.955 Y88.741
G1 F1800 X110.805 Y89.592 E42.57530
G0 F9000 X111.221 Y89.442
G1 F1800 X110.520 Y88.741 E42.62476
G0 F9000 X111.085 Y88.741
G1 F1800 X111.720 Y89.376 E42.66956
G0 F9000 X112.286 Y89.376
G1 F1800 X111.651 Y88.741 E42.71436
G0 F9000 X112.217 Y88.741
G1 F1800 X112.852 Y89.376 E42.75917
G0 F9000 X113.417 Y89.376
G1 F1800 X112.782 Y88.741 E42.80397
G0 F9000 X113.348 Y88.741
G1 F1800 X113.983 Y89.376 E42.84877
G0 F9000 X114.549 Y89.376
G1 F1800 X113.914 Y88.741 E42.89357
G0 F9000 X114.479 Y88.741
G1 F1800 X115.404 Y89.665 E42.95880
G0 F9000 X116.292 Y89.988
G1 F1800 X115.045 Y88.741 E43.04678
G0 F9000 X115.610 Y88.740
G1 F1800 X117.181 Y90.311 E43.15763
G0 F9000 X117.307 Y88.740
G1 F1800 X123.755 Y95.188 E43.61257
G0 F9000 X123.755 Y95.754
G1 F1800 X116.741 Y88.740 E44.10744
G0 F9000 X116.176 Y88.740
G1 F1800 X119.398 Y91.962 E44.33477
G0 F9000 X119.570 Y88.740
G1 F1800 X123.755 Y92.925 E44.63005
G0 F9000 X123.755 Y93.490
G1 F1800 X119.004 Y88.740 E44.96522
G0 F9000 X118.438 Y88.740
G1 F1800 X123.755 Y94.056 E45.34033
G0 F9000 X123.755 Y94.622
G1 F1800 X117.873 Y88.740 E45.75534
G0 F9000 X111.428 Y89.522
G0 X108.394 Y90.642
G0 X107.406 Y91.284
G1 F1800 X105.739 Y89.617 E45.87295
G0 F9000 X105.739 Y90.182
G1 F1800 X107.099 Y91.542 E45.96891
G0 F9000 X106.791 Y91.800
G1 F1800 X105.739 Y90.748 E46.04313
G0 F9000 X105.739 Y91.314
G1 F1800 X106.483 Y92.058 E46.09562
G0 F9000 X106.176 Y92.317
G1 F1800 X105.560 Y91.984 E46.12646
G1 X105.885 Y92.592 E46.16085
G0 F9000 X105.678 Y92.950
G1 F1800 X104.817 Y92.089 E46.22160
G0 F9000 X104.251 Y92.089
G1 F1800 X105.470 Y93.308 E46.30761
G0 F9000 X105.262 Y93.666
G1 F1800 X103.685 Y92.089 E46.41887
G0 F9000 X103.120 Y92.089
G1 F1800 X105.055 Y94.024 E46.55540
G0 F9000 X104.847 Y94.382
G1 F1800 X102.554 Y92.089 E46.71718
G0 F9000 X101.988 Y92.089
G1 F1800 X104.639 Y94.740 E46.90422
G0 F9000 X104.432 Y95.098
G1 F1800 X101.423 Y92.089 E47.11652
G0 F9000 X100.857 Y92.089
G1 F1800 X104.271 Y95.503 E47.35740
G0 F9000 X104.186 Y95.984
G1 F1800 X100.291 Y92.089 E47.63221
G0 F9000 X99.726 Y92.089
G1 F1800 X104.101 Y96.464 E47.94089
G0 F9000 X104.016 Y96.945
G1 F1800 X99.160 Y92.089 E48.28351
G0 F9000 X98.594 Y92.089
G1 F1800 X103.932 Y97.427 E48.66013
G0 F9000 X103.847 Y97.908
G1 F1800 X98.029 Y92.089 E49.07066
G0 F9000 X97.463 Y92.089
G1 F1800 X103.765 Y98.391 E49.51530
G0 F9000 X103.842 Y99.034
G1 F1800 X96.897 Y92.089 E50.00531
G0 F9000 X96.331 Y92.089
G1 F1800 X103.962 Y99.719 E50.54368
G0 F9000 X104.081 Y100.404
G1 F1800 X95.766 Y92.089 E51.13035
G0 F9000 X95.200 Y92.089
G1 F1800 X104.201 Y101.090 E51.76542
G0 F9000 X104.441 Y101.895
G1 F1800 X94.634 Y92.089 E52.45732
G0 F9000 X94.270 Y92.856
G1 F1800 X105.147 Y103.733 E53.22475
G0 F9000 X105.212 Y103.232
G1 F1800 X90.724 Y88.744 E54.24696
G0 F9000 X95.044 Y94.195
G1 F1800 X104.581 Y103.733 E54.91988
G0 F9000 X104.016 Y103.733
G1 F1800 X95.714 Y95.431 E55.50563
G0 F9000 X95.834 Y96.117
G1 F1800 X103.450 Y103.733 E56.04298
G0 F9000 X102.884 Y103.733
G1 F1800 X95.955 Y96.803 E56.53189
G0 F9000 X96.076 Y97.490
G1 F1800 X102.319 Y103.733 E56.97237
G0 F9000 X101.753 Y103.733
G1 F1800 X96.196 Y98.176 E57.36445
G0 F9000 X96.207 Y98.753
G1 F1800 X101.187 Y103.733 E57.71581
G0 F9000 X100.622 Y103.733
G1 F1800 X96.122 Y99.233 E58.03331
G0 F9000 X96.037 Y99.714
G1 F1800 X100.056 Y103.733 E58.31688
G0 F9000 X105.529 Y103.933
G0 X105.529 Y109.215
G0 X100.079 Y109.413
G1 F1800 X101.925 Y111.259 E58.44712
G0 F9000 X101.360 Y111.259
G1 F1800 X99.513 Y109.413 E58.57740
G0 F9000 X98.948 Y109.413
G1 F1800 X100.794 Y111.259 E58.70765
G0 F9000 X100.228 Y111.259
G1 F1800 X98.382 Y109.413 E58.83789
G0 F9000 X97.816 Y109.413
G1 F1800 X99.662 Y111.259 E58.96814
G0 F9000 X99.096 Y111.259
G1 F1800 X97.251 Y109.413 E59.09835
G0 F9000 X96.685 Y109.413
G1 F1800 X98.531 Y111.259 E59.22859
G0 F9000 X97.965 Y111.259
G1 F1800 X96.119 Y109.413 E59.35884
G0 F9000 X95.554 Y109.413
G1 F1800 X97.399 Y111.259 E59.48905
G0 F9000 X96.834 Y111.259
G1 F1800 X94.988 Y109.413 E59.61929
G0 F9000 X94.422 Y109.413
G1 F1800 X96.268 Y111.259 E59.74954
G0 F9000 X95.702 Y111.259
G1 F1800 X91.130 Y106.686 E60.07215
G0 F9000 X91.542 Y106.533
G1 F1800 X94.248 Y109.238 E60.26304
G0 F9000 X94.248 Y108.673
G1 F1800 X91.872 Y106.297 E60.43068
G0 F9000 X92.180 Y106.039
G1 F1800 X94.248 Y108.107 E60.57659
G0 F9000 X94.248 Y107.541
G1 F1800 X92.488 Y105.781 E60.70077
G0 F9000 X92.795 Y105.522
G1 F1800 X94.248 Y106.976 E60.80332
G0 F9000 X94.248 Y106.410
G1 F1800 X93.102 Y105.264 E60.88417
G0 F9000 X93.410 Y105.006
G1 F1800 X94.248 Y105.844 E60.94330
G0 F9000 X94.248 Y105.279
G1 F1800 X93.869 Y104.617 E60.98069
G1 X94.248 Y104.713 E61.00020
G0 F9000 X94.965 Y103.733
G1 F1800 X94.665 Y103.433 E61.02136
G0 F9000 X94.873 Y103.075
G1 F1800 X95.530 Y103.733 E61.06775
G0 F9000 X96.096 Y103.733
G1 F1800 X95.080 Y102.717 E61.13944
G0 F9000 X95.287 Y102.358
G1 F1800 X96.662 Y103.733 E61.23645
G0 F9000 X97.227 Y103.733
G1 F1800 X95.495 Y102.000 E61.35869
G0 F9000 X95.687 Y101.627
G1 F1800 X97.793 Y103.733 E61.50728
G0 F9000 X98.359 Y103.733
G1 F1800 X95.783 Y101.157 E61.68903
G0 F9000 X95.868 Y100.676
G1 F1800 X98.924 Y103.733 E61.90468
G0 F9000 X99.490 Y103.733
G1 F1800 X95.952 Y100.195 E62.15431
G0 F9000 X95.514 Y101.690
G0 X93.851 Y104.454
G0 X91.455 Y106.418
G0 X90.714 Y106.836
G1 F1800 X95.136 Y111.259 E62.46634
G0 F9000 X94.571 Y111.259
G1 F1800 X90.298 Y106.986 E62.76782
G0 F9000 X89.883 Y107.136
G1 F1800 X94.005 Y111.259 E63.05869
G0 F9000 X93.439 Y111.259
G1 F1800 X89.467 Y107.286 E63.33897
G0 F9000 X89.051 Y107.436
G1 F1800 X92.874 Y111.259 E63.60870
G0 F9000 X92.308 Y111.259
G1 F1800 X88.635 Y107.586 E63.86785
