;Generated with Cura_SteamEngine 15.05
; Default start code
G28 ; Home extruder
G1 Z15 F100
M107 ; Turn off fan
G90 ; Absolute positioning
M82 ; Extruder in absolute mode
M190 S50
; Activate all used extruder
M104 T0 S210
G92 E0 ; Reset extruder position
; Wait for all used extruders to reach temperature
M109 T0 S210
;Layer count: 120
;LAYER:0
M107
G0 F9000 X72.300 Y87.300 Z0.300
;TYPE:SKIRT
G1 F1800 X127.700 Y87.300 E2.76392
G1 X127.700 Y109.005 E3.84678
G1 X127.543 Y109.988 E3.89645
G1 X126.975 Y111.097 E3.95861
G1 X126.097 Y111.975 E4.02056
G1 X124.988 Y112.543 E4.08272
G1 X124.005 Y112.700 E4.13238
G1 X75.996 Y112.700 E6.52756
G1 X75.012 Y112.543 E6.57728
G1 X73.902 Y111.975 E6.63948
G1 X73.024 Y111.097 E6.70143
G1 X72.453 Y109.982 E6.76393
G1 X72.300 Y108.998 E6.81361
G1 X72.300 Y87.300 E7.89613
G1 F2400 E3.89613
G0 F9000 X76.100 Y91.100
;TYPE:WALL-INNER
G1 F2400 E7.89613
G1 F1800 X123.900 Y91.100 E10.28088
G1 X123.900 Y108.705 E11.15920
G1 X123.886 Y108.792 E11.16359
G1 X123.865 Y108.833 E11.16589
G1 X123.833 Y108.865 E11.16815
G1 X123.792 Y108.886 E11.17045
G1 X123.705 Y108.900 E11.17484
G1 X76.300 Y108.900 E13.53989
G1 X76.205 Y108.885 E13.54469
G1 X76.166 Y108.865 E13.54687
G1 X76.134 Y108.833 E13.54913
G1 X76.114 Y108.794 E13.55132
G1 X76.100 Y108.703 E13.55591
G1 X76.100 Y91.100 E14.43413
G0 F9000 X88.400 Y96.900
G1 F1800 X88.400 Y105.100 E14.84323
G1 X111.600 Y105.100 E16.00068
G1 X111.600 Y96.900 E16.40978
G1 X88.400 Y96.900 E17.56723
G0 F9000 X86.146 Y103.439
G1 F1800 X85.457 Y103.187 E17.60384
G1 X84.724 Y103.187 E17.64040
G1 X84.036 Y103.439 E17.67696
G1 X83.475 Y103.909 E17.71347
G1 X83.108 Y104.544 E17.75006
G1 X82.982 Y105.265 E17.78658
G1 X83.108 Y105.986 E17.82309
G1 X83.475 Y106.621 E17.85969
G1 X84.036 Y107.092 E17.89623
G1 X84.724 Y107.342 E17.93275
G1 X85.457 Y107.342 E17.96932
G1 X86.146 Y107.092 E18.00589
G1 X86.707 Y106.620 E18.04246
G1 X87.072 Y105.986 E18.07896
G1 X87.200 Y105.265 E18.11550
G1 X87.072 Y104.544 E18.15203
G1 X86.707 Y103.910 E18.18853
G1 X86.146 Y103.439 E18.22507
G0 F9000 X88.459 Y105.041
G0 X112.799 Y105.265
G1 F1800 X112.927 Y105.986 E18.26160
G1 X113.292 Y106.620 E18.29810
G1 X113.853 Y107.092 E18.33468
G1 X114.542 Y107.342 E18.37125
G1 X115.275 Y107.342 E18.40782
G1 X115.963 Y107.092 E18.44434
G1 X116.524 Y106.621 E18.48088
G1 X116.891 Y105.986 E18.51747
G1 X117.017 Y105.265 E18.55399
G1 X116.891 Y104.544 E18.59050
G1 X116.524 Y103.909 E18.62709
G1 X115.963 Y103.439 E18.66361
G1 X115.275 Y103.187 E18.70016
G1 X114.542 Y103.187 E18.73673
G1 X113.853 Y103.439 E18.77333
G1 X113.292 Y103.910 E18.80988
G1 X112.927 Y104.544 E18.84637
G1 X112.799 Y105.265 E18.88291
G0 F9000 X113.205 Y105.265
;TYPE:WALL-OUTER
G1 F1800 X113.308 Y105.847 E18.91240
G1 X113.603 Y106.359 E18.94188
G1 X114.056 Y106.740 E18.97141
G1 X114.613 Y106.942 E19.00097
G1 X115.204 Y106.942 E19.03045
G1 X115.760 Y106.740 E19.05996
G1 X116.213 Y106.360 E19.08946
G1 X116.509 Y105.847 E19.11901
G1 X116.611 Y105.265 E19.14849
G1 X116.509 Y104.683 E19.17797
G1 X116.213 Y104.170 E19.20752
G1 X115.760 Y103.790 E19.23702
G1 X115.204 Y103.587 E19.26655
G1 X114.613 Y103.587 E19.29603
G1 X114.056 Y103.790 E19.32561
G1 X113.603 Y104.171 E19.35514
G1 X113.308 Y104.683 E19.38462
G1 X113.205 Y105.265 E19.41411
G0 F9000 X112.911 Y105.212
G0 X111.200 Y105.000
G0 X111.200 Y104.700
G1 F1800 X111.200 Y97.300 E19.78330
G1 X88.800 Y97.300 E20.90084
G1 X88.800 Y104.700 E21.27002
G1 X111.200 Y104.700 E22.38756
G0 F9000 X111.200 Y105.000
G0 X114.544 Y107.339
G0 X115.961 Y107.089
G0 X123.708 Y109.000
G0 X123.737 Y109.300
G1 F1800 X76.268 Y109.300 E24.75580
G1 X76.079 Y109.270 E24.76535
G1 X75.927 Y109.192 E24.77387
G1 X75.807 Y109.072 E24.78234
G1 X75.729 Y108.920 E24.79086
G1 X75.700 Y108.732 E24.80035
G1 X75.700 Y90.700 E25.69997
G1 X124.300 Y90.700 E28.12464
G1 X124.300 Y108.737 E29.02451
G1 X124.271 Y108.917 E29.03360
G1 X124.192 Y109.072 E29.04228
G1 X124.072 Y109.192 E29.05075
G1 X123.917 Y109.271 E29.05943
G1 X123.737 Y109.300 E29.06852
G0 F9000 X123.708 Y109.000
G0 X87.088 Y105.318
G0 X86.794 Y105.265
G1 F1800 X86.691 Y104.683 E29.09801
G1 X86.396 Y104.171 E29.12749
G1 X85.943 Y103.790 E29.15702
G1 X85.386 Y103.587 E29.18660
G1 X84.795 Y103.587 E29.21608
G1 X84.239 Y103.790 E29.24561
G1 X83.786 Y104.170 E29.27511
G1 X83.490 Y104.683 E29.30466
G1 X83.388 Y105.265 E29.33414
G1 X83.490 Y105.847 E29.36362
G1 X83.786 Y106.360 E29.39317
G1 X84.239 Y106.740 E29.42267
G1 X84.795 Y106.942 E29.45218
G1 X85.386 Y106.942 E29.48166
G1 X85.943 Y106.740 E29.51122
G1 X86.396 Y106.359 E29.54076
G1 X86.691 Y105.847 E29.57024
G1 X86.794 Y105.265 E29.59972
G0 F9000 X87.319 Y105.138
;TYPE:SKIN
G1 F1800 X90.940 Y108.759 E29.85520
G0 F9000 X91.505 Y108.759
G1 F1800 X87.157 Y104.411 E30.16198
G0 F9000 X88.260 Y104.382
G1 F1800 X76.239 Y92.361 E31.01013
G0 F9000 X76.239 Y92.927
G1 F1800 X88.260 Y104.948 E31.85827
G0 F9000 X88.552 Y105.240
G1 F1800 X92.071 Y108.759 E32.10656
G0 F9000 X92.637 Y108.759
G1 F1800 X89.118 Y105.240 E32.35484
G0 F9000 X89.683 Y105.240
G1 F1800 X93.203 Y108.759 E32.60316
G0 F9000 X93.768 Y108.759
G1 F1800 X90.249 Y105.240 E32.85145
G0 F9000 X90.815 Y105.240
G1 F1800 X94.334 Y108.759 E33.09973
G0 F9000 X94.900 Y108.759
G1 F1800 X91.380 Y105.240 E33.34805
G0 F9000 X91.946 Y105.240
G1 F1800 X95.465 Y108.759 E33.59633
G0 F9000 X96.031 Y108.759
G1 F1800 X92.512 Y105.240 E33.84462
G0 F9000 X93.077 Y105.240
G1 F1800 X96.597 Y108.759 E34.09294
G0 F9000 X97.162 Y108.759
G1 F1800 X93.643 Y105.240 E34.34122
G0 F9000 X94.209 Y105.240
G1 F1800 X97.728 Y108.759 E34.58951
G0 F9000 X98.294 Y108.759
G1 F1800 X94.774 Y105.240 E34.83783
G0 F9000 X95.340 Y105.240
G1 F1800 X98.859 Y108.759 E35.08611
G0 F9000 X99.425 Y108.759
G1 F1800 X95.906 Y105.240 E35.33440
G0 F9000 X96.471 Y105.240
G1 F1800 X99.991 Y108.759 E35.58272
G0 F9000 X100.556 Y108.759
G1 F1800 X97.037 Y105.240 E35.83100
G0 F9000 X97.603 Y105.240
G1 F1800 X101.122 Y108.759 E36.07928
G0 F9000 X101.688 Y108.759
G1 F1800 X98.169 Y105.240 E36.32757
G0 F9000 X98.734 Y105.240
G1 F1800 X102.254 Y108.759 E36.57589
G0 F9000 X102.819 Y108.759
G1 F1800 X99.300 Y105.240 E36.82417
G0 F9000 X99.866 Y105.240
G1 F1800 X103.385 Y108.759 E37.07246
G0 F9000 X103.951 Y108.759
G1 F1800 X100.431 Y105.240 E37.32078
G0 F9000 X100.997 Y105.240
G1 F1800 X104.516 Y108.759 E37.56906
G0 F9000 X105.082 Y108.759
G1 F1800 X101.563 Y105.240 E37.81735
G0 F9000 X102.128 Y105.240
G1 F1800 X105.648 Y108.759 E38.06567
G0 F9000 X106.213 Y108.759
G1 F1800 X102.694 Y105.240 E38.31395
G0 F9000 X103.260 Y105.240
G1 F1800 X106.779 Y108.759 E38.56224
G0 F9000 X107.345 Y108.759
G1 F1800 X103.825 Y105.240 E38.81055
G0 F9000 X104.391 Y105.240
G1 F1800 X107.910 Y108.759 E39.05884
G0 F9000 X108.476 Y108.759
G1 F1800 X104.957 Y105.240 E39.30712
G0 F9000 X105.522 Y105.240
G1 F1800 X109.042 Y108.759 E39.55544
G0 F9000 X109.607 Y108.759
G1 F1800 X106.088 Y105.240 E39.80373
G0 F9000 X106.654 Y105.240
G1 F1800 X110.173 Y108.759 E40.05201
G0 F9000 X110.739 Y108.759
G1 F1800 X107.220 Y105.240 E40.30030
G0 F9000 X107.785 Y105.240
G1 F1800 X111.304 Y108.759 E40.54858
G0 F9000 X111.870 Y108.759
G1 F1800 X108.351 Y105.240 E40.79687
G0 F9000 X108.917 Y105.240
G1 F1800 X112.436 Y108.759 E41.04515
G0 F9000 X113.002 Y108.759
G1 F1800 X109.482 Y105.240 E41.29347
G0 F9000 X110.048 Y105.240
G1 F1800 X113.567 Y108.759 E41.54175
G0 F9000 X114.133 Y108.759
G1 F1800 X110.614 Y105.240 E41.79004
G0 F9000 X111.179 Y105.240
G1 F1800 X114.699 Y108.759 E42.03836
G0 F9000 X115.264 Y108.759
G1 F1800 X113.397 Y106.891 E42.17012
G0 F9000 X113.135 Y106.630
G1 F1800 X111.739 Y105.233 E42.26865
G0 F9000 X111.739 Y104.668
G1 F1800 X112.725 Y105.654 E42.33822
G0 F9000 X112.693 Y105.056
G1 F1800 X111.739 Y104.102 E42.40553
G0 F9000 X111.739 Y103.536
G1 F1800 X112.778 Y104.576 E42.47887
G0 F9000 X112.964 Y104.196
G1 F1800 X111.739 Y102.971 E42.56530
G0 F9000 X111.739 Y102.405
G1 F1800 X113.171 Y103.837 E42.66634
G0 F9000 X113.473 Y103.574
G1 F1800 X111.739 Y101.839 E42.78872
G0 F9000 X111.739 Y101.273
G1 F1800 X113.780 Y103.315 E42.93275
G0 F9000 X114.194 Y103.164
G1 F1800 X111.739 Y100.708 E43.10600
G0 F9000 X111.739 Y100.142
G1 F1800 X114.643 Y103.046 E43.31090
G0 F9000 X115.208 Y103.046
G1 F1800 X111.739 Y99.576 E43.55569
G0 F9000 X111.739 Y99.011
G1 F1800 X116.101 Y103.373 E43.86345
G0 F9000 X116.750 Y104.022
G1 F1800 X121.487 Y108.759 E44.19767
G0 F9000 X122.052 Y108.759
G1 F1800 X111.739 Y98.445 E44.92534
G0 F9000 X111.739 Y97.879
G1 F1800 X122.618 Y108.759 E45.69295
G0 F9000 X123.184 Y108.759
G1 F1800 X111.739 Y97.314 E46.50046
G0 F9000 X111.184 Y96.759
G1 F1800 X105.664 Y91.239 E46.88992
G0 F9000 X105.098 Y91.239
G1 F1800 X110.618 Y96.759 E47.27939
G0 F9000 X110.052 Y96.759
G1 F1800 X104.533 Y91.239 E47.66882
G0 F9000 X103.967 Y91.239
G1 F1800 X109.486 Y96.759 E48.05825
G0 F9000 X108.921 Y96.759
G1 F1800 X103.401 Y91.239 E48.44772
G0 F9000 X102.835 Y91.239
G1 F1800 X108.355 Y96.759 E48.83718
G0 F9000 X107.789 Y96.759
G1 F1800 X102.270 Y91.239 E49.22661
G0 F9000 X101.704 Y91.239
G1 F1800 X107.224 Y96.759 E49.61608
G0 F9000 X106.658 Y96.759
G1 F1800 X101.138 Y91.239 E50.00555
G0 F9000 X100.573 Y91.239
G1 F1800 X106.092 Y96.759 E50.39498
G0 F9000 X105.527 Y96.759
G1 F1800 X100.007 Y91.239 E50.78444
G0 F9000 X99.441 Y91.239
G1 F1800 X104.961 Y96.759 E51.17391
G0 F9000 X104.395 Y96.759
G1 F1800 X98.876 Y91.239 E51.56334
G0 F9000 X98.310 Y91.239
G1 F1800 X103.830 Y96.759 E51.95280
G0 F9000 X103.264 Y96.759
G1 F1800 X97.744 Y91.239 E52.34227
G0 F9000 X97.179 Y91.239
G1 F1800 X102.698 Y96.759 E52.73170
G0 F9000 X102.133 Y96.759
G1 F1800 X96.613 Y91.239 E53.12117
G0 F9000 X96.047 Y91.239
G1 F1800 X101.567 Y96.759 E53.51063
G0 F9000 X101.001 Y96.759
G1 F1800 X95.482 Y91.239 E53.90006
G0 F9000 X94.916 Y91.239
G1 F1800 X100.436 Y96.759 E54.28953
G0 F9000 X106.230 Y91.239
G1 F1800 X123.743 Y108.753 E55.52520
G0 F9000 X123.759 Y108.202
G1 F1800 X106.795 Y91.239 E56.72207
G0 F9000 X107.361 Y91.239
G1 F1800 X123.759 Y107.637 E57.87903
G0 F9000 X123.759 Y107.071
G1 F1800 X107.927 Y91.239 E58.99607
G0 F9000 X108.492 Y91.239
G1 F1800 X123.759 Y106.505 E60.07320
G0 F9000 X123.759 Y105.940
G1 F1800 X109.058 Y91.239 E61.11044
G0 F9000 X109.624 Y91.239
G1 F1800 X123.759 Y105.374 E62.10774
G0 F9000 X123.759 Y104.808
G1 F1800 X110.189 Y91.239 E63.06514
G0 F9000 X110.755 Y91.239
G1 F1800 X123.759 Y104.243 E63.98264
G0 F9000 X123.759 Y103.677
G1 F1800 X111.321 Y91.239 E64.86021
G0 F9000 X111.886 Y91.239
G1 F1800 X123.759 Y103.111 E65.69788
G0 F9000 X123.759 Y102.546
G1 F1800 X112.452 Y91.239 E66.49565
G0 F9000 X113.018 Y91.239
G1 F1800 X123.759 Y101.980 E67.25348
G0 F9000 X123.759 Y101.414
G1 F1800 X113.583 Y91.239 E67.97142
G0 F9000 X114.149 Y91.239
G1 F1800 X123.759 Y100.848 E68.64942
G0 F9000 X123.759 Y100.283
G1 F1800 X114.715 Y91.239 E69.28752
G0 F9000 X115.281 Y91.239
G1 F1800 X123.759 Y99.717 E69.88569
G0 F9000 X123.759 Y99.151
G1 F1800 X115.846 Y91.239 E70.44396
G0 F9000 X116.412 Y91.239
G1 F1800 X123.759 Y98.586 E70.96233
G0 F9000 X123.759 Y98.020
G1 F1800 X116.978 Y91.239 E71.44077
G0 F9000 X117.543 Y91.239
G1 F1800 X123.759 Y97.454 E71.87931
G0 F9000 X123.759 Y96.889
G1 F1800 X118.109 Y91.239 E72.27794
G0 F9000 X118.675 Y91.239
G1 F1800 X123.759 Y96.323 E72.63665
G0 F9000 X123.759 Y95.757
G1 F1800 X119.240 Y91.239 E72.95545
G0 F9000 X119.806 Y91.239
G1 F1800 X123.759 Y95.192 E73.23436
G0 F9000 X123.759 Y94.626
G1 F1800 X120.372 Y91.239 E73.47333
G0 F9000 X120.937 Y91.239
G1 F1800 X123.759 Y94.060 E73.67240
G0 F9000 X123.759 Y93.495
G1 F1800 X121.503 Y91.239 E73.83157
G0 F9000 X122.069 Y91.239
G1 F1800 X123.759 Y92.929 E73.95081
G0 F9000 X123.759 Y92.363
G1 F1800 X122.634 Y91.239 E74.03015
G0 F9000 X123.200 Y91.239
G1 F1800 X123.759 Y91.798 E74.06959
G0 F9000 X117.101 Y104.939
G1 F1800 X120.921 Y108.759 E74.33912
G0 F9000 X120.355 Y108.759
G1 F1800 X117.113 Y105.517 E74.56786
G0 F9000 X117.029 Y105.998
G1 F1800 X119.790 Y108.759 E74.76266
G0 F9000 X119.224 Y108.759
G1 F1800 X116.831 Y106.366 E74.93150
G0 F9000 X116.621 Y106.722
G1 F1800 X118.658 Y108.759 E75.07522
G0 F9000 X118.093 Y108.759
G1 F1800 X116.314 Y106.980 E75.20074
G0 F9000 X115.998 Y107.229
G1 F1800 X117.527 Y108.759 E75.30865
G0 F9000 X116.961 Y108.759
G1 F1800 X115.582 Y107.380 E75.40595
G0 F9000 X115.119 Y107.482
G1 F1800 X116.396 Y108.759 E75.49605
G0 F9000 X115.830 Y108.759
G1 F1800 X114.553 Y107.482 E75.58615
G0 F9000 X88.459 Y105.041
G0 X88.459 Y96.959
G0 X99.870 Y96.759
G1 F1800 X94.350 Y91.239 E75.97561
G0 F9000 X93.784 Y91.239
G1 F1800 X99.304 Y96.759 E76.36508
G0 F9000 X98.738 Y96.759
G1 F1800 X93.219 Y91.239 E76.75451
G0 F9000 X92.653 Y91.239
G1 F1800 X98.173 Y96.759 E77.14397
G0 F9000 X97.607 Y96.759
G1 F1800 X92.087 Y91.239 E77.53344
G0 F9000 X91.522 Y91.239
G1 F1800 X97.041 Y96.759 E77.92287
G0 F9000 X96.476 Y96.759
G1 F1800 X90.956 Y91.239 E78.31234
G0 F9000 X90.390 Y91.239
G1 F1800 X95.910 Y96.759 E78.70180
G0 F9000 X95.344 Y96.759
G1 F1800 X89.825 Y91.239 E79.09123
G0 F9000 X89.259 Y91.239
G1 F1800 X94.779 Y96.759 E79.48070
G0 F9000 X94.213 Y96.759
G1 F1800 X88.693 Y91.239 E79.87016
G0 F9000 X88.128 Y91.239
G1 F1800 X93.647 Y96.759 E80.25960
G0 F9000 X93.082 Y96.759
G1 F1800 X87.562 Y91.239 E80.64906
G0 F9000 X86.996 Y91.239
G1 F1800 X92.516 Y96.759 E81.03853
G0 F9000 X91.950 Y96.759
G1 F1800 X86.431 Y91.239 E81.42796
G0 F9000 X85.865 Y91.239
G1 F1800 X91.385 Y96.759 E81.81742
G0 F9000 X90.819 Y96.759
G1 F1800 X85.299 Y91.239 E82.20689
G0 F9000 X84.734 Y91.239
G1 F1800 X90.253 Y96.759 E82.59632
G0 F9000 X89.688 Y96.759
G1 F1800 X84.168 Y91.239 E82.98579
G0 F9000 X83.602 Y91.239
G1 F1800 X89.122 Y96.759 E83.37525
G0 F9000 X88.556 Y96.759
G1 F1800 X83.036 Y91.239 E83.76472
G0 F9000 X82.471 Y91.239
G1 F1800 X88.260 Y97.028 E84.17316
G0 F9000 X88.260 Y97.594
G1 F1800 X81.905 Y91.239 E84.62154
G0 F9000 X81.339 Y91.239
G1 F1800 X88.260 Y98.159 E85.10982
G0 F9000 X88.260 Y98.725
G1 F1800 X80.774 Y91.239 E85.63800
G0 F9000 X80.208 Y91.239
G1 F1800 X88.260 Y99.291 E86.20611
G0 F9000 X88.260 Y99.856
G1 F1800 X79.642 Y91.239 E86.81412
G0 F9000 X79.077 Y91.239
G1 F1800 X88.260 Y100.422 E87.46203
G0 F9000 X88.260 Y100.988
G1 F1800 X78.511 Y91.239 E88.14988
G0 F9000 X77.945 Y91.239
G1 F1800 X88.260 Y101.553 E88.87762
G0 F9000 X88.260 Y102.119
G1 F1800 X77.380 Y91.239 E89.64526
G0 F9000 X76.814 Y91.239
G1 F1800 X88.260 Y102.685 E90.45284
G0 F9000 X88.260 Y103.251
G1 F1800 X76.248 Y91.239 E91.30035
G0 F9000 X76.239 Y91.795
G1 F1800 X88.260 Y103.816 E92.14850
G0 F9000 X87.271 Y105.656
G1 F1800 X90.374 Y108.759 E92.36743
G0 F9000 X89.808 Y108.759
G1 F1800 X87.160 Y106.111 E92.55426
G0 F9000 X86.954 Y106.470
G1 F1800 X89.243 Y108.759 E92.71576
G0 F9000 X88.677 Y108.759
G1 F1800 X86.714 Y106.796 E92.85426
G0 F9000 X86.407 Y107.055
G1 F1800 X88.111 Y108.759 E92.97449
G0 F9000 X87.546 Y108.759
G1 F1800 X86.059 Y107.273 E93.07937
G0 F9000 X85.644 Y107.422
G1 F1800 X86.980 Y108.759 E93.17367
G0 F9000 X86.414 Y108.759
G1 F1800 X85.136 Y107.480 E93.26387
G0 F9000 X84.498 Y107.408
G1 F1800 X85.849 Y108.759 E93.35919
G0 F9000 X85.283 Y108.759
G1 F1800 X76.239 Y99.715 E93.99730
G0 F9000 X76.239 Y99.149
G1 F1800 X82.942 Y105.853 E94.47026
G0 F9000 X82.852 Y105.196
G1 F1800 X76.239 Y98.584 E94.93681
G0 F9000 X76.239 Y98.018
G1 F1800 X82.936 Y104.715 E95.40932
G0 F9000 X83.087 Y104.300
G1 F1800 X76.239 Y97.452 E95.89248
G0 F9000 X76.239 Y96.887
G1 F1800 X83.295 Y103.942 E96.39029
G0 F9000 X83.566 Y103.648
G1 F1800 X76.239 Y96.321 E96.90725
G0 F9000 X76.239 Y95.755
G1 F1800 X83.874 Y103.390 E97.44594
G0 F9000 X84.256 Y103.207
G1 F1800 X76.239 Y95.190 E98.01158
G0 F9000 X76.239 Y94.624
G1 F1800 X84.671 Y103.055 E98.60647
G0 F9000 X85.226 Y103.045
G1 F1800 X76.239 Y94.058 E99.24055
G0 F9000 X76.239 Y93.492
G1 F1800 X85.971 Y103.224 E99.92720
G0 F9000 X87.070 Y104.545
G0 X87.070 Y105.985
G0 X86.143 Y107.089
G0 X84.717 Y108.759
G1 F1800 X76.239 Y100.281 E100.52536
G0 F9000 X76.239 Y100.846
G1 F1800 X84.152 Y108.759 E101.08367
G0 F9000 X83.586 Y108.759
G1 F1800 X76.239 Y101.412 E101.60204
