;Generated with Cura_SteamEngine 15.05
; Default start code
G28 ; Home extruder
G1 Z15 F100
M107 ; Turn off fan
G90 ; Absolute positioning
M82 ; Extruder in absolute mode
M190 S50
; Activate all used extruder
M104 T0 S210
G92 E0 ; Reset extruder position
; Wait for all used extruders to reach temperature
M109 T0 S210
;Layer count: 90
;LAYER:0
M107
G0 F9000 X74.850 Y74.300 Z0.300
;TYPE:SKIRT
G1 F1800 X125.142 Y74.300 E2.50908
G1 X125.140 Y80.081 E2.79749
G1 X125.149 Y83.700 E2.97805
G1 X112.634 Y83.700 E3.60242
G1 X112.614 Y83.904 E3.61265
G1 X112.584 Y84.426 E3.63873
G1 X112.576 Y84.964 E3.66558
G1 X112.590 Y85.478 E3.69123
G1 X112.623 Y85.962 E3.71543
G1 X112.683 Y86.508 E3.74284
G1 X112.761 Y87.022 E3.76878
G1 X112.861 Y87.526 E3.79441
G1 X112.979 Y88.017 E3.81960
G1 X113.127 Y88.537 E3.84658
G1 X113.288 Y89.023 E3.87212
G1 X113.472 Y89.508 E3.89800
G1 X113.678 Y89.993 E3.92429
G1 X113.902 Y90.460 E3.95013
G1 X114.143 Y90.916 E3.97586
G1 X114.412 Y91.376 E4.00245
G1 X114.680 Y91.795 E4.02726
G1 X114.987 Y92.232 E4.05390
G1 X115.293 Y92.630 E4.07895
G1 X115.644 Y93.051 E4.10630
G1 X115.987 Y93.425 E4.13161
G1 X116.354 Y93.797 E4.15769
G1 X116.725 Y94.142 E4.18296
G1 X117.133 Y94.491 E4.20975
G1 X117.526 Y94.799 E4.23466
G1 X117.967 Y95.116 E4.26175
G1 X118.390 Y95.394 E4.28701
G1 X118.841 Y95.664 E4.31323
G1 X119.311 Y95.919 E4.33991
G1 X119.761 Y96.141 E4.36494
G1 X120.276 Y96.366 E4.39298
G1 X120.726 Y96.540 E4.41705
G1 X121.207 Y96.705 E4.44242
G1 X121.848 Y96.895 E4.47578
G1 X122.804 Y97.226 E4.52625
G1 X123.415 Y97.511 E4.55989
G1 X123.944 Y97.804 E4.59006
G1 X124.493 Y98.160 E4.62270
G1 X125.378 Y98.871 E4.67934
G1 X126.204 Y99.746 E4.73937
G1 X126.868 Y100.677 E4.79642
G1 X127.231 Y101.310 E4.83282
G1 X127.612 Y102.183 E4.88035
G1 X127.680 Y102.345 E4.88911
G1 X127.890 Y102.999 E4.92338
G1 X128.109 Y104.054 E4.97714
G1 X128.186 Y104.773 E5.01321
G1 X128.200 Y116.563 E5.60142
G1 X128.185 Y117.482 E5.64727
G1 X128.115 Y118.173 E5.68192
G1 X127.897 Y119.222 E5.73538
G1 X127.681 Y119.910 E5.77135
G1 X127.252 Y120.900 E5.82518
G1 X126.897 Y121.533 E5.86139
G1 X126.278 Y122.410 E5.91494
G1 X125.833 Y122.922 E5.94879
G1 X125.378 Y123.377 E5.98089
G1 X124.548 Y124.053 E6.03430
G1 X123.990 Y124.421 E6.06764
G1 X123.416 Y124.744 E6.10050
G1 X122.557 Y125.118 E6.14725
G1 X122.344 Y125.206 E6.15874
G1 X121.229 Y125.519 E6.21652
G1 X120.041 Y125.685 E6.27637
G1 X81.870 Y125.700 E8.18073
G1 X80.466 Y125.700 E8.25077
G1 X79.395 Y125.628 E8.30432
G1 X78.278 Y125.397 E8.36123
G1 X77.589 Y125.181 E8.39725
G1 X76.599 Y124.752 E8.45108
G1 X75.966 Y124.397 E8.48729
G1 X75.089 Y123.778 E8.54085
G1 X74.577 Y123.333 E8.57469
G1 X74.122 Y122.878 E8.60679
G1 X73.446 Y122.048 E8.66020
G1 X73.078 Y121.490 E8.69355
G1 X72.755 Y120.916 E8.72640
G1 X72.381 Y120.057 E8.77315
G1 X72.293 Y119.844 E8.78464
G1 X71.980 Y118.729 E8.84242
G1 X71.814 Y117.543 E8.90217
G1 X71.800 Y105.692 E9.49342
G1 X71.815 Y104.771 E9.53937
G1 X71.885 Y104.077 E9.57417
G1 X72.115 Y102.964 E9.63087
G1 X72.475 Y101.954 E9.68437
G1 X72.544 Y101.788 E9.69334
G1 X72.815 Y101.221 E9.72469
G1 X73.406 Y100.254 E9.78123
G1 X74.132 Y99.365 E9.83849
G1 X74.647 Y98.852 E9.87476
G1 X75.490 Y98.172 E9.92879
G1 X76.053 Y97.806 E9.96229
G1 X76.582 Y97.512 E9.99249
G1 X77.178 Y97.233 E10.02532
G1 X78.115 Y96.907 E10.07482
G1 X78.783 Y96.709 E10.10958
G1 X79.246 Y96.551 E10.13398
G1 X79.749 Y96.356 E10.16090
G1 X80.206 Y96.156 E10.18578
G1 X80.690 Y95.919 E10.21267
G1 X81.146 Y95.672 E10.23854
G1 X81.587 Y95.409 E10.26416
G1 X82.018 Y95.127 E10.28986
G1 X82.455 Y94.813 E10.31670
G1 X82.849 Y94.504 E10.34168
G1 X83.249 Y94.164 E10.36788
G1 X83.647 Y93.795 E10.39495
G1 X83.996 Y93.443 E10.41968
G1 X84.358 Y93.047 E10.44645
G1 X84.676 Y92.668 E10.47113
G1 X85.003 Y92.244 E10.49785
G1 X85.303 Y91.818 E10.52384
G1 X85.578 Y91.390 E10.54922
G1 X85.852 Y90.924 E10.57619
G1 X86.090 Y90.474 E10.60159
G1 X86.314 Y90.007 E10.62743
G1 X86.513 Y89.542 E10.65266
G1 X86.707 Y89.031 E10.67993
G1 X86.866 Y88.550 E10.70521
G1 X87.014 Y88.040 E10.73170
G1 X87.134 Y87.541 E10.75731
G1 X87.234 Y87.037 E10.78294
G1 X87.312 Y86.530 E10.80853
G1 X87.374 Y85.981 E10.83610
G1 X87.407 Y85.500 E10.86015
G1 X87.423 Y84.936 E10.88830
G1 X87.417 Y84.439 E10.91310
G1 X87.387 Y83.916 E10.93923
G1 X87.366 Y83.700 E10.95006
G1 X74.857 Y83.700 E11.57414
G1 X74.859 Y77.919 E11.86255
G1 X74.850 Y74.300 E12.04310
G1 F2400 E8.04310
G0 F9000 X78.659 Y78.100
;TYPE:WALL-INNER
G1 F2400 E12.04310
G1 F1800 X121.341 Y78.100 E14.17252
G1 X121.340 Y79.900 E14.26232
G1 X111.214 Y79.900 E14.76751
G1 X110.928 Y79.915 E14.78180
G1 X110.663 Y79.967 E14.79527
G1 X110.408 Y80.049 E14.80863
G1 X110.151 Y80.173 E14.82287
G1 X109.761 Y80.453 E14.84682
G1 X109.565 Y80.657 E14.86094
G1 X109.405 Y80.874 E14.87439
G1 X109.276 Y81.106 E14.88763
G1 X109.167 Y81.368 E14.90179
G1 X108.987 Y82.255 E14.94694
G1 X108.891 Y82.933 E14.98110
G1 X108.825 Y83.609 E15.01499
G1 X108.785 Y84.286 E15.04883
G1 X108.776 Y84.955 E15.08221
G1 X108.775 Y84.979 E15.08340
G1 X108.793 Y85.646 E15.11669
G1 X108.839 Y86.323 E15.15055
G1 X108.914 Y86.997 E15.18438
G1 X109.016 Y87.668 E15.21824
G1 X109.148 Y88.335 E15.25216
G1 X109.307 Y88.995 E15.28603
G1 X109.492 Y89.649 E15.31994
G1 X109.706 Y90.294 E15.35384
G1 X109.946 Y90.928 E15.38767
G1 X110.212 Y91.553 E15.42155
G1 X110.506 Y92.166 E15.45547
G1 X110.822 Y92.765 E15.48926
G1 X111.165 Y93.352 E15.52318
G1 X111.532 Y93.925 E15.55713
G1 X111.924 Y94.481 E15.59107
G1 X112.337 Y95.018 E15.62486
G1 X112.763 Y95.529 E15.65806
G1 X113.230 Y96.042 E15.69267
G1 X113.707 Y96.525 E15.72653
G1 X114.205 Y96.987 E15.76042
G1 X114.721 Y97.428 E15.79429
G1 X115.256 Y97.847 E15.82819
G1 X115.807 Y98.243 E15.86204
G1 X116.374 Y98.616 E15.89590
G1 X116.958 Y98.965 E15.92984
G1 X117.553 Y99.289 E15.96364
G1 X118.163 Y99.589 E15.99756
G1 X118.769 Y99.854 E16.03056
G1 X119.418 Y100.109 E16.06535
G1 X120.060 Y100.329 E16.09920
G1 X120.686 Y100.514 E16.13177
G1 X121.372 Y100.751 E16.16798
G1 X121.986 Y101.064 E16.20236
G1 X122.263 Y101.244 E16.21884
G1 X122.796 Y101.672 E16.25295
G1 X123.262 Y102.165 E16.28679
G1 X123.664 Y102.728 E16.32131
G1 X123.832 Y103.021 E16.33816
G1 X124.113 Y103.665 E16.37321
G1 X124.210 Y103.969 E16.38913
G1 X124.349 Y104.635 E16.42307
G1 X124.386 Y104.981 E16.44043
G1 X124.400 Y116.529 E17.01657
G1 X124.388 Y117.257 E17.05289
G1 X124.354 Y117.598 E17.06999
G1 X124.215 Y118.264 E17.10393
G1 X124.117 Y118.577 E17.12029
G1 X123.842 Y119.213 E17.15486
G1 X123.679 Y119.502 E17.17142
G1 X123.288 Y120.057 E17.20529
G1 X122.829 Y120.552 E17.23897
G1 X122.296 Y120.987 E17.27329
G1 X121.720 Y121.338 E17.30694
G1 X121.096 Y121.610 E17.34090
G1 X120.446 Y121.792 E17.37458
G1 X119.779 Y121.885 E17.40818
G1 X80.598 Y121.900 E19.36292
G1 X79.909 Y121.854 E19.39738
G1 X79.227 Y121.713 E19.43212
G1 X78.922 Y121.617 E19.44807
G1 X78.286 Y121.342 E19.48264
G1 X77.997 Y121.179 E19.49920
G1 X77.442 Y120.788 E19.53307
G1 X76.947 Y120.329 E19.56674
G1 X76.512 Y119.796 E19.60107
G1 X76.161 Y119.220 E19.63472
G1 X75.889 Y118.596 E19.66868
G1 X75.707 Y117.946 E19.70236
G1 X75.614 Y117.279 E19.73596
G1 X75.600 Y105.725 E20.31239
G1 X75.612 Y104.993 E20.34891
G1 X75.646 Y104.659 E20.36566
G1 X75.785 Y103.985 E20.39999
G1 X76.015 Y103.338 E20.43425
G1 X76.020 Y103.326 E20.43490
G1 X76.158 Y103.038 E20.45083
G1 X76.514 Y102.456 E20.48487
G1 X76.950 Y101.923 E20.51923
G1 X77.189 Y101.683 E20.53612
G1 X77.727 Y101.250 E20.57058
G1 X78.322 Y100.892 E20.60522
G1 X78.604 Y100.760 E20.62076
G1 X79.292 Y100.521 E20.65709
G1 X79.916 Y100.337 E20.68955
G1 X80.559 Y100.118 E20.72344
G1 X81.193 Y99.872 E20.75737
G1 X81.814 Y99.599 E20.79121
G1 X82.425 Y99.301 E20.82513
G1 X83.021 Y98.978 E20.85895
G1 X83.605 Y98.630 E20.89286
G1 X84.174 Y98.258 E20.92678
G1 X84.725 Y97.861 E20.96066
G1 X85.259 Y97.443 E20.99449
G1 X85.776 Y97.004 E21.02833
G1 X86.275 Y96.541 E21.06229
G1 X86.754 Y96.059 E21.09619
G1 X87.212 Y95.558 E21.13006
G1 X87.648 Y95.037 E21.16395
G1 X88.062 Y94.499 E21.19782
G1 X88.454 Y93.944 E21.23172
G1 X88.821 Y93.372 E21.26563
G1 X89.165 Y92.787 E21.29948
G1 X89.483 Y92.187 E21.33336
G1 X89.777 Y91.575 E21.36723
G1 X90.044 Y90.949 E21.40119
G1 X90.284 Y90.315 E21.43501
G1 X90.498 Y89.671 E21.46887
G1 X90.686 Y89.019 E21.50272
G1 X90.846 Y88.358 E21.53665
G1 X90.978 Y87.691 E21.57057
G1 X91.081 Y87.021 E21.60439
G1 X91.158 Y86.346 E21.63828
G1 X91.204 Y85.668 E21.67219
G1 X91.223 Y85.003 E21.70538
G1 X91.224 Y84.974 E21.70683
G1 X91.216 Y84.310 E21.73996
G1 X91.177 Y83.632 E21.77384
G1 X91.112 Y82.956 E21.80772
G1 X91.016 Y82.284 E21.84159
G1 X90.892 Y81.604 E21.87607
G1 X90.816 Y81.323 E21.89059
G1 X90.597 Y80.877 E21.91538
G1 X90.415 Y80.634 E21.93053
G1 X90.057 Y80.306 E21.95475
G1 X89.818 Y80.158 E21.96878
G1 X89.578 Y80.045 E21.98201
G1 X89.323 Y79.964 E21.99536
G1 X89.047 Y79.912 E22.00937
G1 X87.985 Y79.900 E22.06236
G1 X78.658 Y79.900 E22.52768
G1 X78.659 Y78.100 E22.61749
G0 F9000 X90.056 Y80.307
G0 X90.892 Y81.604
G0 X91.157 Y86.345
G0 X90.043 Y90.949
G0 X87.647 Y95.036
G0 X84.173 Y98.257
G0 X84.179 Y103.157
G1 F1800 X83.666 Y103.327 E22.64445
G1 X82.768 Y103.713 E22.69321
G1 X82.292 Y103.969 E22.72018
G1 X81.468 Y104.510 E22.76936
G1 X80.691 Y105.159 E22.81986
G1 X80.002 Y105.887 E22.86987
G1 X79.671 Y106.304 E22.89643
G1 X79.376 Y106.725 E22.92208
G1 X78.887 Y107.572 E22.97087
G1 X78.661 Y108.053 E22.99739
G1 X78.471 Y108.532 E23.02310
G1 X78.188 Y109.477 E23.07231
G1 X78.010 Y110.472 E23.12274
G1 X77.949 Y111.515 E23.17487
G1 X78.007 Y112.502 E23.22419
G1 X78.083 Y113.019 E23.25026
G1 X78.307 Y113.970 E23.29901
G1 X78.477 Y114.483 E23.32597
G1 X78.863 Y115.381 E23.37473
G1 X79.119 Y115.857 E23.40170
G1 X79.660 Y116.681 E23.45088
G1 X80.309 Y117.458 E23.50138
G1 X81.037 Y118.147 E23.55139
G1 X81.454 Y118.478 E23.57795
G1 X81.875 Y118.773 E23.60360
G1 X82.722 Y119.262 E23.65239
G1 X83.203 Y119.488 E23.67891
G1 X83.682 Y119.678 E23.70462
G1 X84.627 Y119.961 E23.75383
G1 X85.622 Y120.139 E23.80426
G1 X86.597 Y120.197 E23.85299
G1 X86.648 Y120.200 E23.85554
G1 X87.635 Y120.145 E23.90486
G1 X88.169 Y120.066 E23.93179
G1 X89.120 Y119.842 E23.98053
G1 X89.633 Y119.672 E24.00749
G1 X90.531 Y119.286 E24.05626
G1 X91.006 Y119.030 E24.08318
G1 X91.831 Y118.489 E24.13240
G1 X92.608 Y117.840 E24.18291
G1 X93.297 Y117.112 E24.23292
G1 X93.628 Y116.695 E24.25948
G1 X93.923 Y116.274 E24.28512
G1 X94.412 Y115.427 E24.33392
G1 X94.638 Y114.946 E24.36043
G1 X94.828 Y114.467 E24.38614
G1 X95.111 Y113.522 E24.43536
G1 X95.289 Y112.527 E24.48578
G1 X95.348 Y111.553 E24.53447
G1 X95.351 Y111.502 E24.53702
G1 X95.294 Y110.514 E24.58639
G1 X95.216 Y109.980 E24.61331
G1 X94.992 Y109.029 E24.66206
G1 X94.822 Y108.516 E24.68902
G1 X94.436 Y107.618 E24.73778
G1 X94.180 Y107.142 E24.76475
G1 X93.639 Y106.318 E24.81393
G1 X92.990 Y105.541 E24.86443
G1 X92.262 Y104.852 E24.91444
G1 X91.845 Y104.521 E24.94100
G1 X91.424 Y104.226 E24.96665
G1 X90.577 Y103.737 E25.01544
G1 X90.096 Y103.511 E25.04196
G1 X89.617 Y103.321 E25.06767
G1 X88.672 Y103.038 E25.11688
G1 X87.677 Y102.860 E25.16731
G1 X86.703 Y102.802 E25.21599
G1 X86.652 Y102.799 E25.21854
G1 X85.664 Y102.854 E25.26791
G1 X85.130 Y102.933 E25.29484
G1 X84.179 Y103.157 E25.34358
G0 F9000 X87.676 Y102.861
G0 X90.576 Y103.737
G0 X92.989 Y105.542
G0 X104.888 Y109.477
G1 F1800 X104.710 Y110.472 E25.39401
G1 X104.649 Y111.515 E25.44614
G1 X104.707 Y112.502 E25.49546
G1 X104.783 Y113.019 E25.52153
G1 X105.007 Y113.970 E25.57028
G1 X105.177 Y114.483 E25.59724
G1 X105.563 Y115.381 E25.64600
G1 X105.819 Y115.857 E25.67297
G1 X106.360 Y116.681 E25.72215
G1 X107.009 Y117.458 E25.77265
G1 X107.737 Y118.147 E25.82266
G1 X108.154 Y118.478 E25.84922
G1 X108.575 Y118.773 E25.87487
G1 X109.422 Y119.262 E25.92366
G1 X109.903 Y119.488 E25.95018
G1 X110.382 Y119.678 E25.97589
G1 X111.327 Y119.961 E26.02510
G1 X112.322 Y120.139 E26.07553
G1 X113.296 Y120.197 E26.12421
G1 X113.347 Y120.200 E26.12676
G1 X114.335 Y120.145 E26.17613
G1 X114.869 Y120.066 E26.20306
G1 X115.820 Y119.842 E26.25180
G1 X116.333 Y119.672 E26.27876
G1 X117.231 Y119.286 E26.32753
G1 X117.707 Y119.030 E26.35449
G1 X118.531 Y118.489 E26.40367
G1 X119.308 Y117.840 E26.45418
G1 X119.997 Y117.112 E26.50419
G1 X120.328 Y116.695 E26.53075
G1 X120.623 Y116.274 E26.55640
G1 X121.112 Y115.427 E26.60519
G1 X121.338 Y114.946 E26.63170
G1 X121.528 Y114.467 E26.65741
G1 X121.811 Y113.522 E26.70663
G1 X121.989 Y112.527 E26.75706
G1 X122.047 Y111.553 E26.80574
G1 X122.050 Y111.502 E26.80828
G1 X121.995 Y110.514 E26.85765
G1 X121.916 Y109.980 E26.88458
G1 X121.692 Y109.029 E26.93333
G1 X121.522 Y108.516 E26.96029
G1 X121.136 Y107.618 E27.00905
G1 X120.880 Y107.142 E27.03602
G1 X120.339 Y106.318 E27.08520
G1 X119.690 Y105.541 E27.13571
G1 X118.962 Y104.852 E27.18571
G1 X118.545 Y104.521 E27.21227
G1 X118.124 Y104.226 E27.23792
G1 X117.277 Y103.737 E27.28671
G1 X116.796 Y103.511 E27.31323
G1 X116.317 Y103.321 E27.33894
G1 X115.372 Y103.038 E27.38815
G1 X114.377 Y102.860 E27.43858
G1 X113.402 Y102.802 E27.48731
G1 X113.351 Y102.799 E27.48986
G1 X112.364 Y102.854 E27.53918
G1 X111.830 Y102.933 E27.56611
G1 X110.879 Y103.157 E27.61485
G1 X110.366 Y103.327 E27.64181
G1 X109.468 Y103.713 E27.69058
G1 X108.993 Y103.969 E27.71750
G1 X108.168 Y104.510 E27.76672
G1 X107.391 Y105.159 E27.81723
G1 X106.702 Y105.887 E27.86724
G1 X106.371 Y106.304 E27.89380
G1 X106.076 Y106.725 E27.91944
G1 X105.587 Y107.572 E27.96824
G1 X105.361 Y108.053 E27.99475
G1 X105.171 Y108.532 E28.02046
G1 X104.888 Y109.477 E28.06968
G0 F9000 X105.278 Y109.570
;TYPE:WALL-OUTER
G1 F1800 X105.108 Y110.519 E28.11778
G1 X105.050 Y111.515 E28.16755
G1 X105.105 Y112.461 E28.21483
G1 X105.176 Y112.944 E28.23918
G1 X105.392 Y113.861 E28.28618
G1 X105.551 Y114.341 E28.31141
G1 X105.924 Y115.207 E28.35845
G1 X106.163 Y115.652 E28.38365
G1 X106.682 Y116.442 E28.43081
G1 X107.301 Y117.183 E28.47898
G1 X108.000 Y117.844 E28.52698
G1 X108.393 Y118.157 E28.55204
G1 X108.790 Y118.436 E28.57625
G1 X109.607 Y118.907 E28.62330
G1 X110.062 Y119.121 E28.64838
G1 X110.513 Y119.300 E28.67259
G1 X111.420 Y119.571 E28.71982
G1 X112.369 Y119.741 E28.76792
G1 X113.349 Y119.799 E28.81690
G1 X114.294 Y119.746 E28.86412
G1 X114.794 Y119.673 E28.88933
G1 X115.711 Y119.457 E28.93633
G1 X116.191 Y119.298 E28.96156
G1 X117.057 Y118.925 E29.00860
G1 X117.502 Y118.686 E29.03380
G1 X118.292 Y118.167 E29.08096
G1 X119.033 Y117.548 E29.12913
G1 X119.694 Y116.849 E29.17712
G1 X120.007 Y116.456 E29.20219
G1 X120.286 Y116.059 E29.22640
G1 X120.757 Y115.242 E29.27345
G1 X120.971 Y114.787 E29.29853
G1 X121.150 Y114.336 E29.32274
G1 X121.421 Y113.429 E29.36997
G1 X121.591 Y112.480 E29.41806
G1 X121.649 Y111.500 E29.46704
G1 X121.596 Y110.555 E29.51426
G1 X121.523 Y110.055 E29.53947
G1 X121.307 Y109.138 E29.58647
G1 X121.148 Y108.658 E29.61170
G1 X120.775 Y107.792 E29.65874
G1 X120.536 Y107.347 E29.68394
G1 X120.017 Y106.557 E29.73110
G1 X119.398 Y105.816 E29.77927
G1 X118.699 Y105.155 E29.82727
G1 X118.306 Y104.842 E29.85233
G1 X117.909 Y104.563 E29.87654
G1 X117.092 Y104.092 E29.92359
G1 X116.637 Y103.878 E29.94868
G1 X116.186 Y103.699 E29.97288
G1 X115.279 Y103.428 E30.02011
G1 X114.330 Y103.258 E30.06821
G1 X113.349 Y103.200 E30.11724
G1 X112.405 Y103.253 E30.16441
G1 X111.905 Y103.326 E30.18962
G1 X110.988 Y103.542 E30.23662
G1 X110.508 Y103.701 E30.26185
G1 X109.642 Y104.074 E30.30889
G1 X109.198 Y104.313 E30.33405
G1 X108.407 Y104.832 E30.38124
G1 X107.666 Y105.451 E30.42942
G1 X107.005 Y106.150 E30.47741
G1 X106.692 Y106.543 E30.50248
G1 X106.413 Y106.940 E30.52669
G1 X105.942 Y107.757 E30.57373
G1 X105.728 Y108.212 E30.59882
G1 X105.549 Y108.663 E30.62303
G1 X105.278 Y109.570 E30.67025
G0 F9000 X104.984 Y109.516
G0 X95.193 Y110.511
G0 X94.896 Y110.555
G1 F1800 X94.823 Y110.055 E30.69546
G1 X94.607 Y109.138 E30.74247
G1 X94.448 Y108.658 E30.76769
G1 X94.075 Y107.792 E30.81473
G1 X93.836 Y107.347 E30.83993
G1 X93.317 Y106.557 E30.88709
G1 X92.698 Y105.816 E30.93526
G1 X91.999 Y105.155 E30.98326
G1 X91.606 Y104.842 E31.00832
